; generated by PrusaSlicer 2.4.1+arm64 on 2022-04-19 at 16:10:34 UTC

; 

; external perimeters extrusion width = 0.60mm
; perimeters extrusion width = 0.50mm
; infill extrusion width = 0.50mm
; solid infill extrusion width = 0.50mm
; top infill extrusion width = 0.45mm
; first layer extrusion width = 0.42mm

; external perimeters extrusion width = 0.60mm
; perimeters extrusion width = 0.50mm
; infill extrusion width = 0.50mm
; solid infill extrusion width = 0.50mm
; top infill extrusion width = 0.45mm
; first layer extrusion width = 0.42mm

M73 P0 R90
M73 Q0 S91
M201 X1000 Y1000 Z200 E5000 ; sets maximum accelerations, mm/sec^2
M203 X200 Y200 Z12 E120 ; sets maximum feedrates, mm / sec
M204 P1250 R1250 T1250 ; sets acceleration (P, T) and retract acceleration (R), mm/sec^2
M205 X8.00 Y8.00 Z0.40 E4.50 ; sets the jerk limits, mm/sec
M205 S0 T0 ; sets the minimum extruding and travel feed rate, mm/sec
M107
;TYPE:Custom
M862.3 P "MK3" ; printer model check
M862.1 P0.4 ; nozzle diameter check
M115 U3.10.1 ; tell printer latest fw version
G90 ; use absolute coordinates
M83 ; extruder relative mode
M104 S230 ; set extruder temp
M140 S85 ; set bed temp
M190 S85 ; wait for bed temp
M109 S230 ; wait for extruder temp
G28 W ; home all without mesh bed level
G80 ; mesh bed leveling
G1 Z0.2 F720
G1 Y-3 F1000 ; go outside print area
G92 E0
G1 X60 E9 F1000 ; intro line
G1 X100 E12.5 F1000 ; intro line
G92 E0
M221 S95

; Don't change E values below. Excessive value can damage the printer.

M907 E538 ; set extruder motor current
G21 ; set units to millimeters
G90 ; use absolute coordinates
M83 ; use relative distances for extrusion
M900 K0.08 ; Filament gcode LA 1.5
M900 K45 ; Filament gcode LA 1.0
M107
;LAYER_CHANGE
;Z:0.2
;HEIGHT:0.2
;BEFORE_LAYER_CHANGE
G92 E0.0
;0.2


G1 E-1 F2100
G1 Z.2 F720
;AFTER_LAYER_CHANGE
;0.2
G1 Z.4
G1 X73.015 Y81.495 F10800
G1 Z.2 F720
G1 E1 F2100
M204 S800
;TYPE:Skirt/Brim
;WIDTH:0.42
G1 F1200
G1 X74.06 Y80.618 E.04278
G1 X75 Y80.425 E.03008
G1 X175 Y80.425 E3.13543
G1 X176.307 Y80.816 E.04278
G1 X177.183 Y81.862 E.04278
G1 X177.377 Y82.802 E.03008
G1 X177.377 Y105.202 E.70234
G1 X176.985 Y106.509 E.04278
G1 X175.986 Y107.365 E.04126
G1 X129.23 Y128.676 E1.6111
G1 X127.298 Y129.319 E.06386
G1 X125.666 Y129.555 E.0517
G1 X124.017 Y129.53 E.05169
G1 X122.393 Y129.244 E.0517
G1 X120.77 Y128.676 E.05393
G1 X74.014 Y107.365 E1.61109
G1 X72.987 Y106.466 E.04278
G1 X72.623 Y105.202 E.04126
G1 X72.623 Y82.802 E.70234
G1 X72.997 Y81.552 E.0409
M204 S1000
; printing object cudl id:1 copy 0
;WIPE_START
G1 F8640
G1 X74.06 Y80.618 E-.32671
G1 X75 Y80.425 E-.22155
G1 X76.74 Y80.425 E-.40174
;WIPE_END
G1 E-.05 F2100
G1 Z.4 F720
G1 X122.345 Y117.263 F10800
G1 Z.2 F720
G1 E1 F2100
M204 S800
;TYPE:Perimeter
G1 F1200
G1 X122.667 Y116.883 E.01561
G1 X122.855 Y116.708 E.00805
G1 X123.222 Y116.433 E.01438
G1 X123.634 Y116.208 E.01471
G1 X124.064 Y116.048 E.01438
G1 X124.301 Y115.988 E.00769
G1 X124.542 Y115.944 E.00768
G1 X124.986 Y115.912 E.01396
G1 X125.457 Y115.944 E.01478
G1 X125.709 Y115.989 E.00805
G1 X126.149 Y116.119 E.01438
G1 X126.567 Y116.309 E.01438
G1 X126.786 Y116.439 E.00801
G1 X127.134 Y116.699 E.01362
G1 X127.324 Y116.874 E.00809
G1 X127.492 Y117.055 E.00773
G1 X127.767 Y117.422 E.01438
G1 X127.992 Y117.834 E.01471
G1 X128.152 Y118.264 E.01438
G1 X128.215 Y118.511 E.00802
G1 X128.279 Y118.955 E.01405
G1 X128.288 Y119.21 E.00802
G1 X128.255 Y119.668 E.01437
G1 X128.161 Y120.103 E.01395
G1 X128.078 Y120.357 E.00841
G1 X127.897 Y120.754 E.01366
G1 X127.626 Y121.179 E.01581
G1 X127.325 Y121.525 E.01438
G1 X126.971 Y121.833 E.01471
G1 X126.585 Y122.081 E.01438
G1 X126.139 Y122.284 E.01537
G1 X125.709 Y122.411 E.01405
G1 X125.458 Y122.456 E.00802
G1 X125 Y122.489 E.01437
G1 X124.557 Y122.457 E.01395
G1 X124.064 Y122.352 E.0158
G1 X123.647 Y122.197 E.01396
G1 X123.232 Y121.972 E.01478
G1 X123.021 Y121.826 E.00805
G1 X122.675 Y121.525 E.01438
G1 X122.374 Y121.179 E.01438
G1 X122.228 Y120.969 E.00802
G1 X122.009 Y120.566 E.01437
G1 X121.853 Y120.15 E.01395
G1 X121.785 Y119.89 E.00842
G1 X121.721 Y119.445 E.01409
G1 X121.712 Y119.2 E.00769
G1 X121.721 Y118.955 E.00769
G1 X121.785 Y118.511 E.01405
G1 X121.848 Y118.264 E.00802
G1 X122.005 Y117.844 E.01405
G1 X122.119 Y117.615 E.00801
G1 X122.313 Y117.313 E.01125
M204 S1000
G1 X122.662 Y117.466 F10800
M204 S800
;TYPE:External perimeter
G1 F1200
G1 X122.939 Y117.145 E.0133
G1 X123.097 Y116.998 E.00676
G1 X123.426 Y116.751 E.0129
G1 X123.791 Y116.552 E.01302
G1 X124.176 Y116.409 E.0129
G1 X124.381 Y116.356 E.00663
G1 X124.589 Y116.319 E.00663
G1 X124.987 Y116.29 E.0125
G1 X125.41 Y116.319 E.0133
G1 X125.622 Y116.357 E.00676
G1 X126.017 Y116.473 E.0129
G1 X126.392 Y116.644 E.0129
G1 X126.577 Y116.754 E.00675
G1 X126.893 Y116.99 E.01238
G1 X127.058 Y117.142 E.00703
G1 X127.202 Y117.297 E.00665
G1 X127.449 Y117.626 E.0129
G1 X127.648 Y117.991 E.01302
G1 X127.791 Y118.376 E.0129
G1 X127.845 Y118.585 E.00675
G1 X127.903 Y118.989 E.01278
G1 X127.91 Y119.204 E.00675
G1 X127.881 Y119.614 E.0129
G1 X127.797 Y120.004 E.0125
G1 X127.726 Y120.22 E.00714
G1 X127.562 Y120.58 E.01239
G1 X127.328 Y120.947 E.01366
G1 X127.058 Y121.258 E.0129
G1 X126.744 Y121.53 E.01302
G1 X126.398 Y121.753 E.0129
G1 X126.014 Y121.928 E.01326
G1 X125.622 Y122.043 E.01278
G1 X125.41 Y122.081 E.00675
G1 X125 Y122.111 E.0129
G1 X124.603 Y122.083 E.0125
G1 X124.177 Y121.991 E.01366
G1 X123.803 Y121.853 E.0125
G1 X123.43 Y121.651 E.0133
G1 X123.253 Y121.528 E.00676
G1 X122.942 Y121.258 E.0129
G1 X122.672 Y120.947 E.0129
G1 X122.55 Y120.77 E.00675
G1 X122.352 Y120.409 E.0129
G1 X122.213 Y120.036 E.0125
G1 X122.155 Y119.815 E.00714
G1 X122.097 Y119.411 E.0128
G1 X122.09 Y119.2 E.00663
G1 X122.097 Y118.989 E.00663
G1 X122.155 Y118.585 E.01279
G1 X122.209 Y118.376 E.00675
G1 X122.351 Y117.994 E.01279
G1 X122.447 Y117.802 E.00675
G1 X122.63 Y117.517 E.01062
M204 S1000
G1 X122.508 Y117.097 F10800
;WIPE_START
G1 F8640
G1 X122.939 Y117.145 E-.11166
G1 X123.097 Y116.998 E-.04979
G1 X123.426 Y116.751 E-.09502
G1 X123.791 Y116.552 E-.0959
G1 X124.176 Y116.409 E-.09502
G1 X124.381 Y116.356 E-.04883
G1 X124.589 Y116.319 E-.04881
G1 X124.987 Y116.29 E-.09205
G1 X125.41 Y116.319 E-.09793
G1 X125.622 Y116.357 E-.04979
G1 X126.017 Y116.473 E-.09502
G1 X126.294 Y116.599 E-.07019
;WIPE_END
G1 E-.05 F2100
G1 Z.4 F720
G1 X119.199 Y114.915 F10800
G1 Z.2 F720
G1 E1 F2100
M204 S800
;TYPE:Perimeter
G1 F1200
G1 X119.754 Y114.25 E.02714
G1 X120.156 Y113.857 E.01761
G1 X120.835 Y113.312 E.02733
G1 X121.311 Y113.002 E.0178
G1 X121.81 Y112.732 E.0178
G1 X122.614 Y112.394 E.02733
G1 X123.151 Y112.229 E.01762
G1 X124.005 Y112.057 E.02733
G1 X124.57 Y112 E.0178
G1 X125.139 Y111.989 E.01785
G1 X126.006 Y112.058 E.02728
G1 X126.565 Y112.159 E.0178
G1 X127.114 Y112.305 E.0178
G1 X127.93 Y112.61 E.02733
G1 X128.434 Y112.858 E.01761
G1 X129.174 Y113.318 E.02733
G1 X129.62 Y113.662 E.01767
G1 X130.254 Y114.259 E.02728
G1 X130.622 Y114.683 E.01762
G1 X131.126 Y115.394 E.02733
G1 X131.404 Y115.882 E.01762
G1 X131.755 Y116.674 E.02714
G1 X132.009 Y117.501 E.02714
G1 X132.121 Y118.058 E.0178
G1 X132.189 Y118.621 E.0178
G1 X132.206 Y119.487 E.02714
G1 X132.12 Y120.348 E.02715
G1 X132.009 Y120.899 E.01761
G1 X131.753 Y121.732 E.02733
G1 X131.533 Y122.255 E.0178
G1 X131.272 Y122.761 E.01785
G1 X130.797 Y123.49 E.02728
G1 X130.446 Y123.928 E.01762
G1 X129.84 Y124.547 E.02714
G1 X129.165 Y125.088 E.02714
G1 X128.694 Y125.395 E.01761
G1 X127.919 Y125.795 E.02733
G1 X127.392 Y126.004 E.0178
G1 X126.844 Y126.173 E.01798
G1 X126.284 Y126.297 E.01798
G1 X125.722 Y126.376 E.0178
G1 X124.851 Y126.411 E.02733
G1 X124.29 Y126.377 E.01761
G1 X123.435 Y126.24 E.02714
G1 X122.603 Y126.002 E.02714
G1 X122.075 Y125.793 E.0178
G1 X121.566 Y125.542 E.0178
G1 X120.826 Y125.082 E.02733
G1 X120.381 Y124.739 E.01761
G1 X119.746 Y124.141 E.02733
G1 X119.378 Y123.717 E.01761
G1 X118.877 Y123.011 E.02714
G1 X118.464 Y122.25 E.02714
G1 X118.245 Y121.727 E.0178
G1 X118.067 Y121.186 E.01785
G1 X117.878 Y120.337 E.02727
G1 X117.811 Y119.779 E.01761
G1 X117.794 Y118.913 E.02714
G1 X117.88 Y118.052 E.02715
G1 X117.992 Y117.495 E.0178
G1 X118.148 Y116.948 E.01785
G1 X118.469 Y116.14 E.02727
G1 X118.728 Y115.639 E.01767
G1 X119.167 Y114.965 E.02521
M204 S1000
G1 X118.896 Y114.69 F10800
M204 S800
;TYPE:External perimeter
G1 F1200
G1 X119.477 Y113.994 E.02844
G1 X119.905 Y113.575 E.01879
G1 X120.614 Y113.006 E.0285
G1 X121.118 Y112.678 E.01886
G1 X121.647 Y112.391 E.01886
G1 X122.485 Y112.039 E.0285
G1 X123.058 Y111.863 E.01879
G1 X123.949 Y111.683 E.0285
G1 X124.548 Y111.624 E.01886
G1 X125.15 Y111.612 E.01891
G1 X126.055 Y111.684 E.02845
G1 X126.647 Y111.791 E.01886
G1 X127.228 Y111.945 E.01886
G1 X128.08 Y112.263 E.0285
G1 X128.617 Y112.528 E.01879
G1 X129.389 Y113.008 E.0285
G1 X129.865 Y113.375 E.01884
G1 X130.526 Y113.997 E.02845
G1 X130.919 Y114.449 E.01879
G1 X131.445 Y115.191 E.0285
G1 X131.741 Y115.712 E.01879
G1 X132.109 Y116.541 E.02844
G1 X132.375 Y117.408 E.02844
G1 X132.494 Y117.998 E.01886
G1 X132.566 Y118.595 E.01886
G1 X132.584 Y119.502 E.02844
G1 X132.494 Y120.404 E.02844
G1 X132.375 Y120.992 E.01879
G1 X132.108 Y121.861 E.0285
G1 X131.875 Y122.415 E.01886
G1 X131.598 Y122.951 E.01891
G1 X131.103 Y123.711 E.02845
G1 X130.728 Y124.179 E.01879
G1 X130.093 Y124.827 E.02844
G1 X129.386 Y125.394 E.02844
G1 X128.883 Y125.721 E.01879
G1 X128.076 Y126.138 E.0285
G1 X127.517 Y126.36 E.01886
G1 X126.94 Y126.538 E.01892
G1 X126.351 Y126.669 E.01892
G1 X125.755 Y126.752 E.01886
G1 X124.847 Y126.788 E.0285
G1 X124.249 Y126.752 E.01879
G1 X123.353 Y126.609 E.02844
G1 X122.481 Y126.36 E.02844
G1 X121.922 Y126.138 E.01886
G1 X121.383 Y125.872 E.01886
G1 X120.611 Y125.392 E.0285
G1 X120.136 Y125.026 E.01879
G1 X119.474 Y124.403 E.0285
G1 X119.081 Y123.951 E.01879
G1 X118.557 Y123.21 E.02844
G1 X118.124 Y122.413 E.02844
G1 X117.891 Y121.859 E.01886
G1 X117.703 Y121.286 E.01891
G1 X117.506 Y120.4 E.02845
G1 X117.434 Y119.805 E.01879
G1 X117.416 Y118.898 E.02844
G1 X117.506 Y117.996 E.02844
G1 X117.625 Y117.406 E.01886
G1 X117.791 Y116.826 E.01891
G1 X118.126 Y115.983 E.02845
G1 X118.402 Y115.449 E.01884
G1 X118.863 Y114.741 E.0265
M204 S1000
G1 X119.293 Y114.738 F10800
;WIPE_START
G1 F8640
G1 X119.477 Y113.994 E-.22319
G1 X119.905 Y113.575 E-.13838
G1 X120.614 Y113.006 E-.20991
G1 X121.118 Y112.678 E-.13887
G1 X121.647 Y112.391 E-.13886
G1 X122.049 Y112.222 E-.10079
;WIPE_END
G1 E-.05 F2100
G1 Z.4 F720
G1 X128.822 Y113.232 F10800
G1 Z.2 F720
G1 E1 F2100
M204 S800
;TYPE:Solid infill
;WIDTH:0.427484
G1 F1200
G1 X130.083 Y114.494 E.05706
G1 X130.4 Y114.858 E.01541
G1 X130.887 Y115.546 E.02697
G1 X131.151 Y116.01 E.01707
G1 X131.227 Y116.182 E.00602
G1 X128.01 Y112.964 E.1455
G1 X127.818 Y112.87 E.00684
G1 X127.105 Y112.603 E.02435
G1 X131.585 Y117.083 E.2026
G1 X131.735 Y117.571 E.01631
G1 X131.787 Y117.829 E.00843
G1 X126.369 Y112.411 E.245
G1 X125.97 Y112.339 E.01298
G1 X125.734 Y112.32 E.00756
G1 X131.886 Y118.472 E.2782
G1 X131.914 Y119.044 E.01832
G1 X125.143 Y112.273 E.30621
G1 X124.609 Y112.283 E.0171
G1 X131.912 Y119.586 E.33027
G1 X131.863 Y120.08 E.01589
G1 X124.113 Y112.33 E.35047
G1 X123.654 Y112.416 E.01491
G1 X131.791 Y120.552 E.36793
G1 X131.685 Y120.991 E.01442
G1 X123.203 Y112.509 E.38357
G1 X122.787 Y112.637 E.01392
G1 X125.902 Y115.751 E.14086
G1 X125.491 Y115.663 E.01344
G1 X125.253 Y115.647 E.00762
G1 X122.398 Y112.791 E.12912
G1 X122.015 Y112.952 E.01328
G1 X124.711 Y115.648 E.12192
G1 X124.502 Y115.663 E.00672
G1 X124.24 Y115.72 E.00857
G1 X121.656 Y113.137 E.11683
G1 X121.314 Y113.338 E.01271
G1 X123.815 Y115.839 E.1131
G1 X123.429 Y115.998 E.01332
G1 X120.985 Y113.554 E.11052
G1 X120.684 Y113.796 E.01237
G1 X123.078 Y116.19 E.10826
G1 X122.766 Y116.422 E.01243
G1 X120.382 Y114.038 E.1078
G1 X120.104 Y114.304 E.0123
G1 X122.475 Y116.675 E.10724
G1 X122.222 Y116.966 E.01233
G1 X119.842 Y114.586 E.10763
G1 X119.595 Y114.883 E.01235
G1 X121.996 Y117.284 E.10858
G1 X121.796 Y117.628 E.01273
G1 X119.358 Y115.19 E.11027
G1 X119.144 Y115.519 E.01257
G1 X121.639 Y118.015 E.11285
G1 X121.513 Y118.433 E.01396
G1 X118.935 Y115.855 E.11658
G1 X118.75 Y116.213 E.0129
G1 X121.443 Y118.906 E.12177
G1 X121.438 Y119.445 E.01726
G1 X118.591 Y116.598 E.12874
G1 X118.437 Y116.988 E.01339
G1 X121.811 Y120.362 E.1526
M204 S1000
;WIPE_START
G1 F8640
G1 X118.902 Y117.453 E-.95
;WIPE_END
G1 E-.05 F2100
G1 Z.4 F720
G1 X128.188 Y118.037 F10800
G1 Z.2 F720
G1 E1 F2100
M204 S800
G1 F1200
G1 X131.557 Y121.407 E.15236
G1 X131.415 Y121.808 E.01361
G1 X128.562 Y118.955 E.12901
G1 X128.571 Y119.216 E.00834
G1 X128.552 Y119.489 E.00875
G1 X131.25 Y122.187 E.12204
G1 X131.065 Y122.546 E.0129
G1 X128.481 Y119.962 E.11684
G1 X128.365 Y120.389 E.01417
G1 X130.856 Y122.881 E.11267
G1 X130.642 Y123.21 E.01257
G1 X128.201 Y120.769 E.11039
G1 X128.002 Y121.115 E.01274
G1 X130.409 Y123.522 E.10886
G1 X130.16 Y123.816 E.01234
G1 X127.778 Y121.435 E.1077
G1 X127.526 Y121.726 E.01233
G1 X129.891 Y124.091 E.10694
G1 X129.618 Y124.362 E.0123
G1 X127.235 Y121.978 E.10779
G1 X126.916 Y122.204 E.01247
G1 X129.316 Y124.604 E.10853
G1 X129.015 Y124.846 E.01237
G1 X126.568 Y122.399 E.11064
G1 X126.189 Y122.564 E.01321
G1 X128.686 Y125.062 E.11294
G1 X128.34 Y125.259 E.01275
G1 X125.768 Y122.687 E.1163
G1 X125.493 Y122.737 E.00894
M73 Q0 S90
G1 X125.288 Y122.752 E.00655
G1 X127.981 Y125.445 E.12178
G1 X127.607 Y125.614 E.01313
G1 X124.747 Y122.754 E.12934
G1 X124.517 Y122.738 E.00739
G1 X124.097 Y122.648 E.01372
G1 X127.213 Y125.764 E.14088
G1 X126.797 Y125.891 E.01392
G1 X118.312 Y117.406 E.38371
G1 X118.209 Y117.848 E.0145
G1 X126.353 Y125.992 E.36829
G1 X125.885 Y126.068 E.01517
M73 P0 R89
G1 X118.137 Y118.32 E.35037
G1 X118.088 Y118.814 E.01589
G1 X125.38 Y126.107 E.32977
G1 X124.857 Y126.127 E.01674
G1 X118.086 Y119.356 E.30623
G1 X118.114 Y119.928 E.01832
G1 X124.274 Y126.088 E.27859
G1 X123.626 Y125.984 E.02098
G1 X118.222 Y120.579 E.24441
G1 X118.34 Y121.111 E.0174
G1 X118.404 Y121.305 E.00656
G1 X122.888 Y125.789 E.20277
G1 X122.694 Y125.734 E.00644
G1 X122.19 Y125.534 E.01734
G1 X121.99 Y125.436 E.00712
G1 X118.765 Y122.21 E.14586
G1 X119.118 Y122.861 E.02368
G1 X119.6 Y123.542 E.02669
G1 X119.917 Y123.907 E.01544
G1 X121.178 Y125.167 E.05701
M204 S1000
; stop printing object cudl id:1 copy 0
; printing object drzak id:0 copy 0
;WIPE_START
G1 F8640
G1 X119.917 Y123.907 E-.41168
G1 X119.6 Y123.542 E-.11152
G1 X119.118 Y122.861 E-.19275
G1 X118.765 Y122.21 E-.171
G1 X118.958 Y122.403 E-.06305
;WIPE_END
G1 E-.05 F2100
G1 Z.4 F720
G1 X75.787 Y104.415 F10800
G1 Z.2 F720
G1 E1 F2100
M204 S800
;TYPE:Perimeter
;WIDTH:0.42
G1 F1200
G1 X75.787 Y83.589 E.65298
G1 X174.213 Y83.589 E3.08607
G1 X174.213 Y104.415 E.65298
G1 X75.847 Y104.415 E3.08419
M204 S1000
G1 X75.41 Y104.792 F10800
M204 S800
;TYPE:External perimeter
M73 P1 R89
M73 Q1 S90
G1 F1200
G1 X75.41 Y83.212 E.67663
G1 X174.59 Y83.212 E3.10972
G1 X174.59 Y104.792 E.67663
G1 X75.47 Y104.792 E3.10784
M204 S1000
G1 X75.585 Y104.432 F10800
;WIPE_START
G1 F8640
G1 X75.459 Y100.677 E-.95
;WIPE_END
G1 E-.05 F2100
G1 Z.4 F720
G1 X173.334 Y83.702 F10800
G1 Z.2 F720
G1 E1 F2100
M204 S800
;TYPE:Solid infill
;WIDTH:0.421555
G1 F1200
G1 X173.93 Y84.298 E.02653
G1 X173.93 Y84.833 E.01686
G1 X172.968 Y83.871 E.04282
G1 X172.433 Y83.871 E.01686
G1 X173.93 Y85.369 E.06666
G1 X173.93 Y85.904 E.01686
G1 X171.898 Y83.871 E.0905
G1 X171.362 Y83.871 E.01686
G1 X173.93 Y86.44 E.11434
G1 X173.93 Y86.975 E.01686
G1 X170.827 Y83.871 E.13818
G1 X170.291 Y83.871 E.01686
G1 X173.93 Y87.51 E.16203
G1 X173.93 Y88.046 E.01686
G1 X169.756 Y83.871 E.18587
G1 X169.22 Y83.871 E.01686
G1 X173.93 Y88.581 E.20971
G1 X173.93 Y89.117 E.01686
G1 X168.685 Y83.871 E.23355
G1 X168.149 Y83.871 E.01686
G1 X173.93 Y89.652 E.25739
G1 X173.93 Y90.188 E.01686
G1 X167.614 Y83.871 E.28123
G1 X167.078 Y83.871 E.01686
G1 X173.93 Y90.723 E.30508
G1 X173.93 Y91.259 E.01686
G1 X166.543 Y83.871 E.32892
G1 X166.007 Y83.871 E.01686
G1 X173.93 Y91.794 E.35276
G1 X173.93 Y92.33 E.01686
