; generated by PrusaSlicer 2.4.1+arm64 on 2022-04-19 at 08:28:36 UTC

; 

; external perimeters extrusion width = 0.45mm
; perimeters extrusion width = 0.45mm
; infill extrusion width = 0.45mm
; solid infill extrusion width = 0.45mm
; top infill extrusion width = 0.40mm
; first layer extrusion width = 0.42mm

M73 P0 R117
M73 Q0 S117
M201 X1000 Y1000 Z200 E5000 ; sets maximum accelerations, mm/sec^2
M203 X200 Y200 Z12 E120 ; sets maximum feedrates, mm / sec
M204 P1250 R1250 T1250 ; sets acceleration (P, T) and retract acceleration (R), mm/sec^2
M205 X8.00 Y8.00 Z0.40 E4.50 ; sets the jerk limits, mm/sec
M205 S0 T0 ; sets the minimum extruding and travel feed rate, mm/sec
M107
;TYPE:Custom
M862.3 P "MK3" ; printer model check
M862.1 P0.4 ; nozzle diameter check
M115 U3.10.1 ; tell printer latest fw version
G90 ; use absolute coordinates
M83 ; extruder relative mode
M104 S230 ; set extruder temp
M140 S85 ; set bed temp
M190 S85 ; wait for bed temp
M109 S230 ; wait for extruder temp
G28 W ; home all without mesh bed level
G80 ; mesh bed leveling
G1 Z0.2 F720
G1 Y-3 F1000 ; go outside print area
G92 E0
G1 X60 E9 F1000 ; intro line
G1 X100 E12.5 F1000 ; intro line
G92 E0
M221 S95

; Don't change E values below. Excessive value can damage the printer.
M907 E430 ; set extruder motor current
G21 ; set units to millimeters
G90 ; use absolute coordinates
M83 ; use relative distances for extrusion
M900 K0.08 ; Filament gcode LA 1.5
M900 K45 ; Filament gcode LA 1.0
M107
;LAYER_CHANGE
;Z:0.2
;HEIGHT:0.2
;BEFORE_LAYER_CHANGE
G92 E0.0
;0.2


G1 E-1 F2100
M73 P0 R116
G1 Z.2 F720
;AFTER_LAYER_CHANGE
;0.2
G1 Z.4
G1 X70.402 Y58.259 F10800
G1 Z.2 F720
G1 E1 F2100
M204 S800
;TYPE:Skirt/Brim
;WIDTH:0.42
G1 F1200
G1 X72.814 Y55.591 E.11278
G1 X75.345 Y53.037 E.11275
G1 X78.065 Y50.577 E.11496
G1 X80.842 Y48.291 E.11279
G1 X83.795 Y46.119 E.11492
G1 X86.79 Y44.124 E.11284
G1 X89.945 Y42.261 E.11488
G1 X93.128 Y40.579 E.11288
G1 X95.376 Y39.515 E.07798
G1 X98.691 Y38.12 E.11277
G1 X102.073 Y36.88 E.11293
G1 X104.441 Y36.128 E.07793
G1 X107.93 Y35.187 E.11331
G1 X111.495 Y34.405 E.11441
G1 X115.062 Y33.82 E.11335
G1 X118.686 Y33.402 E.11437
G1 X122.295 Y33.18 E.11339
G1 X125.942 Y33.13 E.11433
G1 X129.556 Y33.273 E.11343
G1 X133.188 Y33.591 E.11429
G1 X136.749 Y34.094 E.11277
G1 X140.294 Y34.769 E.11315
G1 X143.843 Y35.64 E.11457
G1 X147.303 Y36.67 E.11319
G1 X149.644 Y37.479 E.07767
G1 X153.013 Y38.809 E.11356
G1 X156.282 Y40.286 E.11246
G1 X158.491 Y41.401 E.07762
G1 X161.653 Y43.173 E.11362
G1 X164.737 Y45.104 E.1141
G1 X167.704 Y47.186 E.11366
G1 X170.577 Y49.418 E.11406
G1 X173.32 Y51.789 E.1137
G1 X175.952 Y54.3 E.11403
G1 X178.443 Y56.936 E.11374
G1 X180.807 Y59.698 E.11399
G1 X183.021 Y62.574 E.11378
G1 X185.092 Y65.559 E.11394
G1 X187.006 Y68.644 E.11382
G1 X188.765 Y71.823 E.1139
G1 X190.343 Y75.055 E.11277
G1 X191.77 Y78.383 E.11354
G1 X193.031 Y81.799 E.11418
G1 X194.115 Y85.256 E.11358
G1 X195.025 Y88.78 E.11414
G1 X195.754 Y92.33 E.11362
G1 X196.304 Y95.927 E.1141
G1 X196.671 Y99.534 E.11366
G1 X196.817 Y101.992 E.0772
G1 X196.877 Y105.628 E.11403
G1 X196.754 Y109.252 E.11369
G1 X196.451 Y112.836 E.11277
G1 X195.964 Y116.431 E.11376
G1 X195.296 Y120.004 E.11397
G1 X194.449 Y123.533 E.1138
G1 X193.424 Y127.019 E.11393
G1 X192.224 Y130.446 E.11384
G1 X190.854 Y133.81 E.11389
G1 X189.313 Y137.099 E.11387
G1 X187.611 Y140.306 E.11385
G1 X185.746 Y143.424 E.11392
G1 X183.73 Y146.442 E.1138
G1 X181.558 Y149.357 E.11396
G1 X179.249 Y152.155 E.11376
G1 X177.597 Y153.992 E.07747
G1 X175.085 Y156.553 E.11246
G1 X172.423 Y159.015 E.11371
G1 X170.537 Y160.614 E.07752
G1 X167.682 Y162.831 E.11334
G1 X164.693 Y164.925 E.11442
G1 X161.63 Y166.841 E.1133
G1 X158.444 Y168.624 E.11446
G1 X155.203 Y170.22 E.11326
G1 X151.853 Y171.673 E.1145
G1 X148.469 Y172.934 E.11322
G1 X145.043 Y174.027 E.11277
G1 X141.518 Y174.949 E.11423
G1 X137.976 Y175.696 E.11349
G1 X134.376 Y176.258 E.11426
G1 X130.778 Y176.644 E.11346
G1 X127.137 Y176.84 E.11431
G1 X123.52 Y176.861 E.11341
G1 X119.878 Y176.688 E.11435
G1 X116.278 Y176.345 E.11337
G1 X112.67 Y175.805 E.11439
G1 X109.125 Y175.1 E.11333
G1 X105.588 Y174.198 E.11443
G1 X102.134 Y173.14 E.11329
G1 X99.791 Y172.309 E.07794
G1 X96.453 Y170.956 E.11292
G1 X93.187 Y169.45 E.11278
G1 X90.976 Y168.311 E.07799
G1 X87.852 Y166.522 E.11286
G1 X84.761 Y164.554 E.1149
G1 X81.835 Y162.46 E.11282
G1 X78.957 Y160.189 E.11494
G1 X76.258 Y157.811 E.11279
G1 X73.623 Y155.261 E.11497
G1 X71.179 Y152.623 E.11275
G1 X68.858 Y149.876 E.11277
M73 Q0 S116
G1 X66.654 Y146.956 E.1147
G1 X64.617 Y143.982 E.11302
G1 X62.718 Y140.854 E.11473
G1 X60.993 Y137.691 E.11298
G1 X59.419 Y134.386 E.11478
G1 X58.021 Y131.066 E.11294
G1 X56.789 Y127.618 E.11482
G1 X55.733 Y124.175 E.1129
G1 X54.855 Y120.619 E.11486
G1 X54.152 Y117.089 E.11286
G1 X53.775 Y114.618 E.07837
G1 X53.294 Y109.879 E.14935
G1 X53.168 Y107.381 E.07841
G1 X53.148 Y103.784 E.11278
G1 X53.289 Y100.2 E.11246
G1 X53.499 Y97.709 E.0784
G1 X54.139 Y92.988 E.14937
G1 X54.599 Y90.532 E.07836
G1 X55.421 Y87.027 E.11287
G1 X56.418 Y83.503 E.11484
G1 X57.589 Y80.097 E.11291
G1 X58.937 Y76.693 E.1148
G1 X60.446 Y73.421 E.11296
G1 X62.13 Y70.172 E.11476
G1 X63.961 Y67.068 E.11299
G1 X65.965 Y64.006 E.11472
G1 X68.1 Y61.102 E.11303
G1 X70.364 Y58.305 E.1128
M204 S1000
; printing object krouzek_svetlo v1 id:0 copy 0
;WIPE_START
G1 F8640
G1 X72.814 Y55.591 E-.84435
G1 X73.136 Y55.266 E-.10565
;WIPE_END
G1 E-.05 F2100
G1 Z.4 F720
G1 X86.139 Y71.537 F10800
G1 Z.2 F720
G1 E1 F2100
M204 S800
;TYPE:Perimeter
G1 F1200
G1 X87.507 Y70.01 E.06429
G1 X88.919 Y68.556 E.06355
G1 X90.387 Y67.159 E.06354
G1 X91.909 Y65.82 E.06354
G1 X93.483 Y64.544 E.06354
G1 X94.682 Y63.647 E.04694
G1 X95.106 Y63.33 E.0166
G1 X96.775 Y62.181 E.06354
G1 X98.489 Y61.099 E.06354
G1 X100.244 Y60.086 E.06354
G1 X102.038 Y59.143 E.06354
G1 X103.867 Y58.271 E.06354
G1 X105.73 Y57.473 E.06354
G1 X107.622 Y56.748 E.06354
G1 X109.542 Y56.099 E.06354
G1 X111.486 Y55.527 E.06354
G1 X113.451 Y55.031 E.06354
G1 X115.434 Y54.614 E.06354
G1 X117.433 Y54.275 E.06354
G1 X119.442 Y54.015 E.06354
G1 X121.461 Y53.835 E.06354
G1 X123.485 Y53.735 E.06354
G1 X125.488 Y53.716 E.06279
G1 X127.537 Y53.775 E.06429
G1 X129.559 Y53.915 E.06355
G1 X131.574 Y54.135 E.06354
G1 X133.578 Y54.434 E.06354
G1 X135.569 Y54.813 E.06354
G1 X137.544 Y55.269 E.06354
G1 X139.498 Y55.803 E.06354
G1 X141.408 Y56.407 E.06279
G1 X143.337 Y57.101 E.06429
G1 X145.215 Y57.863 E.06355
G1 X147.062 Y58.698 E.06354
G1 X148.874 Y59.606 E.06354
G1 X150.649 Y60.584 E.06354
G1 X152.383 Y61.632 E.06354
G1 X154.075 Y62.747 E.06354
G1 X155.722 Y63.929 E.06354
G1 X157.32 Y65.174 E.06354
G1 X158.869 Y66.482 E.06354
G1 X160.364 Y67.85 E.06354
G1 X161.804 Y69.276 E.06354
G1 X163.187 Y70.758 E.06354
G1 X164.494 Y72.274 E.06279
G1 X165.771 Y73.879 E.06429
G1 X166.968 Y75.514 E.06355
G1 X168.101 Y77.195 E.06354
G1 X169.165 Y78.919 E.06354
G1 X170.161 Y80.684 E.06354
G1 X171.087 Y82.487 E.06354
G1 X171.94 Y84.325 E.06354
G1 X172.72 Y86.195 E.06354
G1 X173.426 Y88.095 E.06354
G1 X174.056 Y90.021 E.06354
G1 X174.61 Y91.971 E.06354
G1 X175.086 Y93.941 E.06354
G1 X175.483 Y95.928 E.06354
G1 X175.802 Y97.929 E.06354
G1 X176.042 Y99.941 E.06354
G1 X176.2 Y101.938 E.06279
G1 X176.282 Y103.987 E.06429
G1 X176.282 Y106.013 E.06355
G1 X176.202 Y108.038 E.06354
G1 X176.042 Y110.059 E.06354
G1 X175.802 Y112.071 E.06354
G1 X175.483 Y114.072 E.06354
G1 X175.086 Y116.059 E.06354
G1 X174.61 Y118.029 E.06354
G1 X174.056 Y119.979 E.06354
G1 X173.426 Y121.905 E.06354
G1 X172.72 Y123.805 E.06354
G1 X171.94 Y125.675 E.06354
G1 X171.087 Y127.513 E.06354
G1 X170.161 Y129.316 E.06354
G1 X169.165 Y131.081 E.06354
G1 X168.101 Y132.805 E.06354
G1 X166.968 Y134.486 E.06354
G1 X165.771 Y136.121 E.06354
G1 X164.51 Y137.707 E.06354
G1 X163.187 Y139.242 E.06354
G1 X161.804 Y140.724 E.06354
G1 X160.364 Y142.15 E.06354
G1 X158.869 Y143.518 E.06354
G1 X157.339 Y144.81 E.06279
G1 X155.722 Y146.071 E.06429
G1 X154.075 Y147.253 E.06355
G1 X152.383 Y148.368 E.06354
G1 X150.649 Y149.416 E.06354
G1 X148.874 Y150.394 E.06354
G1 X147.062 Y151.302 E.06354
G1 X145.215 Y152.137 E.06354
G1 X143.337 Y152.899 E.06354
G1 X141.453 Y153.578 E.06279
G1 X139.499 Y154.197 E.06429
G1 X137.544 Y154.731 E.06355
G1 X135.569 Y155.187 E.06354
G1 X133.578 Y155.566 E.06354
G1 X131.574 Y155.865 E.06354
G1 X129.559 Y156.085 E.06354
G1 X127.537 Y156.225 E.06354
G1 X125.512 Y156.285 E.06354
G1 X123.485 Y156.265 E.06354
G1 X121.461 Y156.165 E.06354
G1 X119.442 Y155.985 E.06354
G1 X117.433 Y155.725 E.06354
G1 X115.434 Y155.386 E.06354
G1 X113.451 Y154.969 E.06354
G1 X111.486 Y154.473 E.06354
G1 X109.542 Y153.901 E.06354
G1 X107.622 Y153.252 E.06354
G1 X105.73 Y152.527 E.06354
G1 X103.867 Y151.729 E.06354
G1 X102.038 Y150.857 E.06354
G1 X100.244 Y149.914 E.06354
G1 X98.489 Y148.901 E.06354
G1 X96.775 Y147.819 E.06354
G1 X95.106 Y146.67 E.06354
G1 X93.483 Y145.456 E.06354
G1 X91.909 Y144.18 E.06354
G1 X90.387 Y142.841 E.06354
G1 X88.919 Y141.444 E.06354
G1 X87.507 Y139.99 E.06354
G1 X86.154 Y138.481 E.06354
G1 X84.862 Y136.92 E.06354
G1 X83.632 Y135.31 E.06354
G1 X82.467 Y133.651 E.06354
G1 X81.368 Y131.949 E.06354
G1 X80.338 Y130.204 E.06354
G1 X79.377 Y128.419 E.06354
G1 X78.487 Y126.598 E.06354
G1 X77.67 Y124.744 E.06354
G1 X76.927 Y122.858 E.06354
G1 X76.259 Y120.945 E.06354
G1 X75.674 Y119.03 E.06279
G1 X75.153 Y117.047 E.06429
G1 X74.716 Y115.068 E.06355
G1 X74.357 Y113.073 E.06354
G1 X74.078 Y111.066 E.06354
G1 X73.878 Y109.049 E.06354
G1 X73.759 Y107.05 E.06279
G1 X73.718 Y105 E.06429
G1 X73.758 Y102.974 E.06355
G1 X73.878 Y100.951 E.06354
G1 X74.078 Y98.934 E.06354
G1 X74.357 Y96.927 E.06354
G1 X74.716 Y94.932 E.06354
G1 X75.153 Y92.953 E.06354
G1 X75.667 Y90.993 E.06354
G1 X76.259 Y89.055 E.06354
G1 X76.927 Y87.142 E.06354
G1 X77.67 Y85.256 E.06354
G1 X78.487 Y83.402 E.06354
G1 X79.377 Y81.581 E.06354
G1 X80.326 Y79.818 E.06279
G1 X81.368 Y78.052 E.06429
G1 X82.467 Y76.349 E.06355
G1 X83.632 Y74.69 E.06354
G1 X84.862 Y73.08 E.06354
G1 X86.101 Y71.583 E.06091
M204 S1000
G1 X86.425 Y71.783 F10800
M204 S800
;TYPE:External perimeter
G1 F1200
G1 X87.783 Y70.267 E.06382
G1 X89.184 Y68.824 E.06308
G1 X90.642 Y67.437 E.06307
G1 X92.152 Y66.109 E.06307
G1 X93.714 Y64.841 E.06307
G1 X94.907 Y63.949 E.04671
G1 X95.325 Y63.636 E.01637
G1 X96.983 Y62.496 E.06307
G1 X98.684 Y61.422 E.06307
G1 X100.426 Y60.416 E.06307
G1 X102.206 Y59.48 E.06307
G1 X104.023 Y58.615 E.06307
G1 X105.872 Y57.822 E.06307
G1 X107.75 Y57.103 E.06307
G1 X109.656 Y56.459 E.06307
G1 X111.586 Y55.89 E.06308
G1 X113.536 Y55.399 E.06307
G1 X115.505 Y54.984 E.06307
G1 X117.488 Y54.648 E.06308
G1 X119.483 Y54.39 E.06307
G1 X121.487 Y54.212 E.06307
G1 X123.496 Y54.112 E.06307
G1 X125.484 Y54.093 E.06232
G1 X127.519 Y54.152 E.06382
G1 X129.526 Y54.291 E.06308
G1 X131.525 Y54.509 E.06307
G1 X133.515 Y54.806 E.06307
G1 X135.491 Y55.182 E.06307
G1 X137.451 Y55.635 E.06308
G1 X139.392 Y56.165 E.06307
G1 X141.287 Y56.764 E.06232
G1 X143.202 Y57.453 E.06382
G1 X145.067 Y58.209 E.06308
G1 X146.9 Y59.038 E.06308
G1 X148.698 Y59.939 E.06307
G1 X150.46 Y60.911 E.06307
G1 X152.182 Y61.951 E.06308
G1 X153.861 Y63.058 E.06307
G1 X155.496 Y64.231 E.06308
G1 X157.083 Y65.467 E.06307
G1 X158.62 Y66.765 E.06307
G1 X160.104 Y68.123 E.06307
G1 X161.533 Y69.539 E.06308
G1 X162.906 Y71.009 E.06307
G1 X164.203 Y72.515 E.06232
G1 X165.471 Y74.108 E.06382
G1 X166.66 Y75.731 E.06308
G1 X167.784 Y77.399 E.06307
G1 X168.841 Y79.111 E.06308
G1 X169.829 Y80.863 E.06307
G1 X170.748 Y82.652 E.06307
G1 X171.595 Y84.477 E.06307
G1 X172.37 Y86.334 E.06307
G1 X173.07 Y88.219 E.06308
G1 X173.695 Y90.131 E.06307
G1 X174.245 Y92.067 E.06307
G1 X174.717 Y94.022 E.06307
G1 X175.112 Y95.995 E.06308
G1 X175.429 Y97.981 E.06307
G1 X175.667 Y99.979 E.06307
G1 X175.824 Y101.96 E.06232
G1 X175.905 Y103.994 E.06382
G1 X175.905 Y106.006 E.06308
G1 X175.826 Y108.016 E.06308
G1 X175.667 Y110.021 E.06307
G1 X175.429 Y112.019 E.06307
G1 X175.112 Y114.005 E.06307
G1 X174.717 Y115.978 E.06308
G1 X174.245 Y117.933 E.06307
G1 X173.695 Y119.869 E.06307
G1 X173.07 Y121.781 E.06307
G1 X172.37 Y123.666 E.06308
G1 X171.595 Y125.523 E.06307
G1 X170.748 Y127.348 E.06307
G1 X169.829 Y129.137 E.06307
G1 X168.841 Y130.889 E.06307
G1 X167.784 Y132.601 E.06308
G1 X166.66 Y134.269 E.06307
G1 X165.471 Y135.892 E.06307
G1 X164.219 Y137.467 E.06307
G1 X162.906 Y138.991 E.06307
G1 X161.533 Y140.461 E.06307
G1 X160.104 Y141.877 E.06308
G1 X158.62 Y143.235 E.06307
G1 X157.101 Y144.517 E.06232
G1 X155.496 Y145.769 E.06382
G1 X153.861 Y146.942 E.06308
G1 X152.182 Y148.049 E.06307
G1 X150.46 Y149.089 E.06308
G1 X148.698 Y150.061 E.06307
G1 X146.9 Y150.962 E.06307
G1 X145.067 Y151.791 E.06308
G1 X143.203 Y152.547 E.06307
G1 X141.332 Y153.22 E.06232
G1 X139.392 Y153.835 E.06382
G1 X137.451 Y154.365 E.06308
G1 X135.491 Y154.818 E.06308
G1 X133.515 Y155.194 E.06307
G1 X131.525 Y155.491 E.06307
G1 X129.526 Y155.709 E.06307
G1 X127.519 Y155.848 E.06308
G1 X125.508 Y155.908 E.06307
G1 X123.496 Y155.888 E.06308
G1 X121.487 Y155.788 E.06307
G1 X119.483 Y155.61 E.06307
G1 X117.488 Y155.352 E.06307
G1 X115.505 Y155.016 E.06308
G1 X113.536 Y154.601 E.06307
G1 X111.586 Y154.11 E.06307
G1 X109.656 Y153.541 E.06307
G1 X107.75 Y152.897 E.06307
G1 X105.872 Y152.178 E.06307
G1 X104.023 Y151.385 E.06307
G1 X102.206 Y150.52 E.06307
G1 X100.426 Y149.584 E.06307
G1 X98.684 Y148.578 E.06307
G1 X96.983 Y147.504 E.06307
G1 X95.325 Y146.364 E.06307
G1 X93.714 Y145.159 E.06308
G1 X92.152 Y143.891 E.06307
G1 X90.642 Y142.563 E.06307
G1 X89.184 Y141.176 E.06307
G1 X87.783 Y139.733 E.06308
G1 X86.44 Y138.235 E.06307
G1 X85.157 Y136.686 E.06308
G1 X83.936 Y135.087 E.06307
G1 X82.78 Y133.441 E.06307
G1 X81.689 Y131.75 E.06308
G1 X80.666 Y130.018 E.06307
G1 X79.712 Y128.247 E.06308
G1 X78.829 Y126.44 E.06307
G1 X78.018 Y124.599 E.06307
G1 X77.281 Y122.727 E.06308
G1 X76.618 Y120.828 E.06307
G1 X76.037 Y118.927 E.06232
G1 X75.519 Y116.958 E.06382
G1 X75.085 Y114.994 E.06308
G1 X74.73 Y113.014 E.06307
G1 X74.452 Y111.021 E.06307
G1 X74.254 Y109.019 E.06307
G1 X74.136 Y107.035 E.06232
G1 X74.095 Y105 E.06382
G1 X74.135 Y102.989 E.06308
G1 X74.254 Y100.981 E.06308
G1 X74.452 Y98.979 E.06307
G1 X74.73 Y96.986 E.06307
G1 X75.085 Y95.006 E.06307
G1 X75.519 Y93.042 E.06307
G1 X76.03 Y91.096 E.06307
G1 X76.618 Y89.172 E.06308
G1 X77.281 Y87.273 E.06307
G1 X78.018 Y85.401 E.06308
G1 X78.829 Y83.56 E.06307
G1 X79.712 Y81.753 E.06307
G1 X80.655 Y80.003 E.06232
G1 X81.689 Y78.25 E.06382
G1 X82.78 Y76.559 E.06308
G1 X83.936 Y74.913 E.06307
G1 X85.157 Y73.314 E.06307
G1 X86.386 Y71.829 E.06044
M204 S1000
G1 X86.293 Y71.406 F10800
;WIPE_START
G1 F8640
G1 X87.783 Y70.267 E-.48386
G1 X89.184 Y68.824 E-.46452
G1 X89.189 Y68.819 E-.00162
;WIPE_END
G1 E-.05 F2100
G1 Z.4 F720
G1 X73.444 Y60.199 F10800
G1 Z.2 F720
G1 E1 F2100
M204 S800
;TYPE:Perimeter
G1 F1200
G1 X74.845 Y58.63 E.06594
G1 X76.274 Y57.126 E.06507
G1 X77.918 Y55.508 E.07229
G1 X79.79 Y53.795 E.07957
G1 X81.365 Y52.444 E.06507
G1 X83.163 Y51.001 E.07229
G1 X85.199 Y49.486 E.07957
G1 X86.903 Y48.3 E.06507
G1 X88.838 Y47.047 E.0723
G1 X91.017 Y45.745 E.07957
G1 X92.831 Y44.738 E.06507
G1 X94.883 Y43.687 E.0723
G1 X97.182 Y42.612 E.07957
G1 X99.089 Y41.794 E.06507
G1 X101.237 Y40.955 E.07229
G1 X103.633 Y40.119 E.07957
G1 X105.613 Y39.497 E.06507
G1 X107.835 Y38.88 E.07229
G1 X110.303 Y38.29 E.07957
G1 X112.336 Y37.872 E.06506
G1 X114.609 Y37.483 E.0723
G1 X117.124 Y37.145 E.07957
G1 X119.188 Y36.935 E.06507
G1 X121.489 Y36.778 E.07232
M73 P0 R115
G1 X123.794 Y36.698 E.07229
G1 X126.331 Y36.702 E.07957
G1 X128.405 Y36.772 E.06507
G1 X130.707 Y36.926 E.07232
G1 X133.001 Y37.157 E.07229
G1 X135.515 Y37.502 E.07957
G1 X137.561 Y37.851 E.06507
G1 X139.82 Y38.313 E.0723
G1 X142.286 Y38.911 E.07957
G1 X144.286 Y39.465 E.06506
G1 X146.487 Y40.153 E.0723
G1 X148.88 Y40.997 E.07957
G1 X150.814 Y41.75 E.06507
G1 X152.934 Y42.658 E.0723
G1 X155.229 Y43.739 E.07957
G1 X157.077 Y44.684 E.06507
G1 X159.094 Y45.801 E.0723
G1 X161.269 Y47.109 E.07957
