; generated by PrusaSlicer 2.4.1+arm64 on 2022-03-30 at 18:23:28 UTC

; 

; external perimeters extrusion width = 0.60mm
; perimeters extrusion width = 0.50mm
; infill extrusion width = 0.50mm
; solid infill extrusion width = 0.50mm
; top infill extrusion width = 0.45mm
; support material extrusion width = 0.38mm
; first layer extrusion width = 0.42mm

M73 P0 R54
M73 Q0 S54
M201 X1000 Y1000 Z200 E5000 ; sets maximum accelerations, mm/sec^2
M203 X200 Y200 Z12 E120 ; sets maximum feedrates, mm / sec
M204 P1250 R1250 T1250 ; sets acceleration (P, T) and retract acceleration (R), mm/sec^2
M205 X8.00 Y8.00 Z0.40 E4.50 ; sets the jerk limits, mm/sec
M205 S0 T0 ; sets the minimum extruding and travel feed rate, mm/sec
M107
;TYPE:Custom
M862.3 P "MK3" ; printer model check
M862.1 P0.4 ; nozzle diameter check
M115 U3.10.1 ; tell printer latest fw version
G90 ; use absolute coordinates
M83 ; extruder relative mode
M104 S230 ; set extruder temp
M140 S85 ; set bed temp
M190 S85 ; wait for bed temp
M109 S230 ; wait for extruder temp
G28 W ; home all without mesh bed level
G80 ; mesh bed leveling
G1 Z0.2 F720
G1 Y-3 F1000 ; go outside print area
G92 E0
G1 X60 E9 F1000 ; intro line
G1 X100 E12.5 F1000 ; intro line
G92 E0
M221 S95

; Don't change E values below. Excessive value can damage the printer.

M907 E538 ; set extruder motor current
G21 ; set units to millimeters
G90 ; use absolute coordinates
M83 ; use relative distances for extrusion
M900 K0.08 ; Filament gcode LA 1.5
M900 K45 ; Filament gcode LA 1.0
M107
;LAYER_CHANGE
;Z:0.2
;HEIGHT:0.2
;BEFORE_LAYER_CHANGE
G92 E0.0
;0.2


G1 E-1 F2100
G1 Z.2 F720
;AFTER_LAYER_CHANGE
;0.2
G1 Z.4
G1 X99.531 Y86.478 F10800
G1 Z.2 F720
G1 E1 F2100
M204 S800
;TYPE:Skirt/Brim
;WIDTH:0.42
G1 F1200
G1 X106.478 Y79.531 E.30804
G1 X107.096 Y79.086 E.02388
G1 X111.727 Y76.77 E.16235
G1 X112.79 Y76.519 E.03425
G1 X137.21 Y76.519 E.76568
G1 X138.273 Y76.77 E.03425
G1 X142.905 Y79.086 E.16235
G1 X143.522 Y79.531 E.02388
G1 X150.469 Y86.478 E.30804
G1 X150.914 Y87.096 E.02388
G1 X153.23 Y91.727 E.16235
G1 X153.481 Y92.79 E.03425
G1 X153.481 Y117.21 E.76568
G1 X153.23 Y118.273 E.03425
G1 X150.914 Y122.905 E.16235
G1 X150.469 Y123.522 E.02388
G1 X143.522 Y130.469 E.30804
G1 X142.905 Y130.914 E.02388
G1 X138.273 Y133.23 E.16235
G1 X137.21 Y133.481 E.03425
G1 X112.79 Y133.481 E.76568
G1 X111.727 Y133.23 E.03425
G1 X107.096 Y130.914 E.16235
G1 X106.478 Y130.469 E.02388
G1 X99.531 Y123.522 E.30804
G1 X99.086 Y122.905 E.02388
G1 X96.77 Y118.273 E.16235
G1 X96.519 Y117.21 E.03425
G1 X96.519 Y92.79 E.76568
G1 X96.77 Y91.727 E.03425
G1 X99.086 Y87.096 E.16235
G1 X99.496 Y86.526 E.022
M204 S1000
; printing object spunt id:0 copy 0
;WIPE_START
G1 F8640
G1 X102.402 Y83.614 E-.95
;WIPE_END
G1 E-.05 F2100
G1 Z.4 F720
G1 X126.503 Y93.266 F10800
G1 Z.2 F720
G1 E1 F2100
M204 S800
;TYPE:Support material
G1 F1200
G1 X127.492 Y93.436 E.03148
G1 X128.464 Y93.689 E.03148
G1 X129.411 Y94.024 E.03148
G1 X130.326 Y94.437 E.03148
G1 X131.202 Y94.927 E.03148
G1 X132.034 Y95.489 E.03148
G1 X132.815 Y96.12 E.03148
G1 X133.54 Y96.815 E.03148
G1 X134.204 Y97.568 E.03148
G1 X134.801 Y98.376 E.03148
G1 X135.327 Y99.231 E.03148
G1 X135.779 Y100.127 E.03148
G1 X136.154 Y101.059 E.03148
G1 X136.448 Y102.019 E.03148
G1 X136.659 Y103.001 E.03148
G1 X136.787 Y103.997 E.03148
G1 X136.829 Y105 E.03148
G1 X136.787 Y106.003 E.03148
G1 X136.659 Y106.999 E.03148
G1 X136.448 Y107.981 E.03148
G1 X136.154 Y108.941 E.03148
G1 X135.779 Y109.873 E.03148
G1 X135.327 Y110.769 E.03148
G1 X134.801 Y111.624 E.03148
G1 X134.204 Y112.432 E.03148
G1 X133.54 Y113.185 E.03148
G1 X132.815 Y113.88 E.03148
G1 X132.034 Y114.511 E.03148
G1 X131.202 Y115.073 E.03148
G1 X130.326 Y115.563 E.03148
G1 X129.411 Y115.976 E.03148
G1 X128.464 Y116.311 E.03148
G1 X127.492 Y116.564 E.03148
G1 X126.503 Y116.734 E.03148
G1 X125.502 Y116.819 E.03148
G1 X124.498 Y116.819 E.03148
G1 X123.497 Y116.734 E.03148
G1 X122.508 Y116.564 E.03148
G1 X121.536 Y116.311 E.03148
G1 X120.589 Y115.976 E.03148
G1 X119.674 Y115.563 E.03148
G1 X118.798 Y115.073 E.03148
G1 X117.966 Y114.511 E.03148
G1 X117.185 Y113.88 E.03148
G1 X116.46 Y113.185 E.03148
G1 X115.796 Y112.432 E.03148
G1 X115.199 Y111.624 E.03148
G1 X114.673 Y110.769 E.03148
G1 X114.221 Y109.873 E.03148
G1 X113.846 Y108.941 E.03148
G1 X113.552 Y107.981 E.03148
G1 X113.341 Y106.999 E.03148
G1 X113.213 Y106.003 E.03148
G1 X113.171 Y105 E.03148
G1 X113.213 Y103.997 E.03148
G1 X113.341 Y103.001 E.03148
G1 X113.552 Y102.019 E.03148
G1 X113.846 Y101.059 E.03148
G1 X114.221 Y100.127 E.03148
G1 X114.673 Y99.231 E.03148
G1 X115.199 Y98.376 E.03148
G1 X115.796 Y97.568 E.03148
G1 X116.46 Y96.815 E.03148
G1 X117.185 Y96.12 E.03148
G1 X117.966 Y95.489 E.03148
G1 X118.798 Y94.927 E.03148
G1 X119.674 Y94.437 E.03148
G1 X120.589 Y94.024 E.03148
G1 X121.536 Y93.689 E.03148
G1 X122.508 Y93.436 E.03148
G1 X123.497 Y93.266 E.03148
G1 X124.498 Y93.181 E.03148
G1 X125.502 Y93.181 E.03148
G1 X126.446 Y93.262 E.02971
M204 S1000
G1 X121.27 Y96.37 F10800
M204 S800
G1 F1200
G1 X121.001 Y96.552 E.01019
G1 X121.001 Y98.685 E.0669
G1 X118.685 Y98.685 E.0726
G1 X118.685 Y101.001 E.0726
G1 X116.37 Y101.001 E.0726
G1 X116.37 Y108.999 E.25078
G1 X118.685 Y108.999 E.0726
G1 X118.685 Y111.315 E.0726
G1 X121.001 Y111.315 E.0726
G1 X121.001 Y113.63 E.0726
G1 X128.999 Y113.63 E.25078
G1 X128.999 Y111.315 E.0726
G1 X131.315 Y111.315 E.0726
G1 X131.315 Y108.999 E.0726
G1 X133.63 Y108.999 E.0726
G1 X133.63 Y101.001 E.25078
G1 X131.315 Y101.001 E.0726
G1 X131.315 Y98.685 E.0726
G1 X128.999 Y98.685 E.0726
G1 X128.999 Y96.37 E.0726
G1 X121.327 Y96.37 E.24056
M204 S1000
;WIPE_START
G1 F8640
G1 X125.441 Y96.37 E-.95
;WIPE_END
G1 E-.05 F2100
G1 Z.4 F720
G1 X136.312 Y107.804 F10800
G1 Z.2 F720
G1 E1 F2100
M204 S800
G1 F1200
G1 X136.312 Y103.002 E.15056
G1 X136.119 Y102.105 E.02877
G1 X135.893 Y101.368 E.02416
G1 X135.893 Y108.632 E.22776
G1 X135.833 Y108.828 E.00642
G1 X135.474 Y109.721 E.03019
G1 X135.474 Y100.279 E.29606
G1 X135.055 Y99.445 E.02924
G1 X135.055 Y110.555 E.34832
G1 X134.636 Y111.244 E.02529
G1 X134.636 Y98.756 E.39155
G1 X134.519 Y98.566 E.007
G1 X134.217 Y98.158 E.01592
G1 X134.217 Y111.842 E.42907
G1 X133.799 Y112.378 E.02133
G1 X133.799 Y109.339 E.09531
G1 X133.38 Y109.339 E.01314
G1 X133.38 Y112.854 E.11024
G1 X132.961 Y113.271 E.01852
G1 X132.961 Y109.339 E.1233
G1 X132.542 Y109.339 E.01314
G1 X132.542 Y113.665 E.13565
G1 X132.123 Y114.003 E.01688
G1 X132.123 Y109.339 E.14626
G1 X131.704 Y109.339 E.01314
G1 X131.704 Y114.325 E.15634
G1 X131.285 Y114.608 E.01586
G1 X131.285 Y111.654 E.09261
G1 X130.866 Y111.654 E.01314
G1 X130.866 Y114.872 E.10091
G1 X130.447 Y115.107 E.01505
G1 X130.447 Y111.654 E.10825
G1 X130.028 Y111.654 E.01314
G1 X130.028 Y115.325 E.1151
G1 X129.609 Y115.514 E.01442
G1 X129.609 Y111.654 E.12104
G1 X129.339 Y111.654 E.00847
G1 X129.339 Y113.97 E.0726
G1 X129.19 Y113.97 E.00466
G1 X129.19 Y115.695 E.05408
G1 X128.771 Y115.843 E.01393
G1 X128.771 Y113.97 E.05872
G1 X128.352 Y113.97 E.01314
G1 X128.352 Y115.989 E.06333
G1 X127.933 Y116.099 E.01357
G1 X127.933 Y113.97 E.06675
G1 X127.514 Y113.97 E.01314
G1 X127.514 Y116.208 E.07017
G1 X127.421 Y116.232 E.00302
G1 X127.095 Y116.288 E.01036
G1 X127.095 Y113.97 E.07268
G1 X126.676 Y113.97 E.01314
G1 X126.676 Y116.36 E.07493
G1 X126.257 Y116.414 E.01325
G1 X126.257 Y113.97 E.07664
G1 X125.838 Y113.97 E.01314
G1 X125.838 Y116.45 E.07775
G1 X125.419 Y116.479 E.01317
M73 Q1 S54
G1 X125.419 Y113.97 E.07869
G1 X125 Y113.97 E.01314
G1 X125 Y116.479 E.07869
G1 X124.581 Y116.479 E.01314
M73 P1 R54
G1 X124.581 Y113.97 E.07869
G1 X124.162 Y113.97 E.01314
G1 X124.162 Y116.45 E.07775
G1 X123.743 Y116.414 E.01318
G1 X123.743 Y113.97 E.07664
G1 X123.324 Y113.97 E.01314
G1 X123.324 Y116.36 E.07493
G1 X122.905 Y116.288 E.01333
G1 X122.905 Y113.97 E.07268
G1 X122.486 Y113.97 E.01314
G1 X122.486 Y116.208 E.07017
G1 X122.067 Y116.099 E.01357
G1 X122.067 Y113.97 E.06675
G1 X121.648 Y113.97 E.01314
G1 X121.648 Y115.989 E.06333
G1 X121.229 Y115.843 E.01392
G1 X121.229 Y113.97 E.05872
G1 X120.81 Y113.97 E.01314
G1 X120.81 Y115.695 E.05408
G1 X120.391 Y115.514 E.0143
G1 X120.391 Y111.654 E.12104
G1 X119.972 Y111.654 E.01314
G1 X119.972 Y115.325 E.1151
G1 X119.553 Y115.107 E.01482
G1 X119.553 Y111.654 E.10825
G1 X119.134 Y111.654 E.01314
G1 X119.134 Y114.872 E.10091
G1 X118.715 Y114.608 E.01554
G1 X118.715 Y111.654 E.09261
G1 X118.346 Y111.654 E.01158
G1 X118.346 Y109.339 E.0726
G1 X118.296 Y109.339 E.00155
G1 X118.296 Y114.325 E.15634
G1 X117.877 Y114.003 E.01656
G1 X117.877 Y109.339 E.14626
G1 X117.458 Y109.339 E.01314
G1 X117.458 Y113.665 E.13565
G1 X117.039 Y113.271 E.01803
G1 X117.039 Y109.339 E.1233
G1 X116.62 Y109.339 E.01314
G1 X116.62 Y112.854 E.11024
G1 X116.201 Y112.378 E.01988
G1 X116.201 Y109.339 E.09531
G1 X116.03 Y109.339 E.00537
G1 X116.03 Y100.661 E.27206
G1 X116.201 Y100.661 E.00537
G1 X116.201 Y97.622 E.09531
G1 X116.62 Y97.146 E.01988
G1 X116.62 Y100.661 E.11024
G1 X117.039 Y100.661 E.01314
G1 X117.039 Y96.729 E.1233
G1 X117.409 Y96.375 E.01605
G1 X117.458 Y96.335 E.00199
G1 X117.458 Y100.661 E.13565
G1 X117.877 Y100.661 E.01314
G1 X117.877 Y95.997 E.14626
G1 X118.296 Y95.675 E.01656
G1 X118.296 Y100.661 E.15634
G1 X118.346 Y100.661 E.00155
G1 X118.346 Y98.346 E.0726
G1 X118.715 Y98.346 E.01158
G1 X118.715 Y95.392 E.09261
G1 X119.134 Y95.128 E.01554
G1 X119.134 Y98.346 E.10091
G1 X119.553 Y98.346 E.01314
G1 X119.553 Y94.893 E.10825
G1 X119.972 Y94.675 E.01482
G1 X119.972 Y98.346 E.1151
G1 X120.391 Y98.346 E.01314
G1 X120.391 Y94.486 E.12104
G1 X120.81 Y94.305 E.0143
G1 X120.81 Y96.271 E.06163
G1 X121.166 Y96.03 E.01348
G1 X121.229 Y96.03 E.00197
G1 X121.229 Y94.157 E.05872
G1 X121.648 Y94.011 E.01392
G1 X121.648 Y96.03 E.06333
G1 X122.067 Y96.03 E.01314
G1 X122.067 Y93.901 E.06675
M73 P1 R53
G1 X122.486 Y93.792 E.01357
G1 X122.486 Y96.03 E.07017
G1 X122.905 Y96.03 E.01314
G1 X122.905 Y93.712 E.07268
G1 X123.324 Y93.64 E.01333
G1 X123.324 Y96.03 E.07493
G1 X123.743 Y96.03 E.01314
G1 X123.743 Y93.586 E.07664
G1 X124.162 Y93.55 E.01318
G1 X124.162 Y96.03 E.07776
G1 X124.581 Y96.03 E.01314
G1 X124.581 Y93.521 E.07869
G1 X125 Y93.521 E.01314
G1 X125 Y96.03 E.07869
G1 X125.419 Y96.03 E.01314
G1 X125.419 Y93.521 E.07869
G1 X125.838 Y93.55 E.01317
G1 X125.838 Y96.03 E.07776
G1 X126.257 Y96.03 E.01314
G1 X126.257 Y93.586 E.07664
G1 X126.676 Y93.64 E.01325
G1 X126.676 Y96.03 E.07493
G1 X127.095 Y96.03 E.01314
G1 X127.095 Y93.712 E.07268
G1 X127.514 Y93.792 E.01337
G1 X127.514 Y96.03 E.07017
G1 X127.933 Y96.03 E.01314
G1 X127.933 Y93.901 E.06675
G1 X128.352 Y94.011 E.01357
G1 X128.352 Y96.03 E.06333
G1 X128.771 Y96.03 E.01314
G1 X128.771 Y94.157 E.05872
G1 X129.19 Y94.305 E.01393
G1 X129.19 Y96.03 E.05408
G1 X129.339 Y96.03 E.00466
G1 X129.339 Y98.346 E.0726
G1 X129.609 Y98.346 E.00847
G1 X129.609 Y94.486 E.12104
G1 X130.028 Y94.675 E.01442
G1 X130.028 Y98.346 E.1151
G1 X130.447 Y98.346 E.01314
G1 X130.447 Y94.893 E.10825
G1 X130.866 Y95.128 E.01505
G1 X130.866 Y98.346 E.10091
G1 X131.285 Y98.346 E.01314
G1 X131.285 Y95.392 E.09261
G1 X131.704 Y95.675 E.01586
G1 X131.704 Y100.661 E.15634
G1 X132.123 Y100.661 E.01314
G1 X132.123 Y95.997 E.14626
G1 X132.542 Y96.335 E.01688
G1 X132.542 Y100.661 E.13565
G1 X132.961 Y100.661 E.01314
G1 X132.961 Y96.729 E.1233
G1 X133.38 Y97.146 E.01852
G1 X133.38 Y100.661 E.11024
G1 X133.799 Y100.661 E.01314
G1 X133.799 Y97.365 E.10336
M204 S1000
;WIPE_START
G1 F8640
G1 X133.799 Y100.661 E-.7612
G1 X133.38 Y100.661 E-.09674
G1 X133.38 Y100.263 E-.09206
;WIPE_END
G1 E-.05 F2100
G1 Z.4 F720
G1 X115.783 Y112.128 F10800
G1 Z.2 F720
G1 E1 F2100
M204 S800
G1 F1200
G1 X115.783 Y98.158 E.43801
G1 X115.481 Y98.566 E.01592
G1 X115.364 Y98.756 E.007
G1 X115.364 Y111.244 E.39155
G1 X114.945 Y110.555 E.02529
G1 X114.945 Y99.445 E.34832
G1 X114.526 Y100.279 E.02924
G1 X114.526 Y109.721 E.29606
G1 X114.167 Y108.828 E.03019
G1 X114.107 Y108.632 E.00642
G1 X114.107 Y101.368 E.22776
G1 X113.881 Y102.105 E.02416
G1 X113.688 Y103.002 E.02877
G1 X113.688 Y107.804 E.15056
M204 S1000
;WIPE_START
G1 F8640
G1 X113.688 Y103.689 E-.95
;WIPE_END
G1 E-.05 F2100
G1 Z.4 F720
G1 X137.21 Y81.212 F10800
G1 Z.2 F720
G1 E1 F2100
M204 S800
G1 F1200
G1 X141.841 Y81.212 E.14521
G1 X141.841 Y83.527 E.0726
G1 X144.157 Y83.527 E.0726
G1 X144.157 Y85.843 E.0726
G1 X146.473 Y85.843 E.0726
G1 X146.473 Y88.159 E.0726
G1 X148.788 Y88.159 E.0726
G1 X148.788 Y92.79 E.14521
G1 X151.104 Y92.79 E.0726
G1 X151.104 Y117.21 E.76568
G1 X148.788 Y117.21 E.0726
M73 Q1 S53
G1 X148.788 Y121.841 E.14521
G1 X146.473 Y121.841 E.0726
G1 X146.473 Y124.157 E.0726
G1 X144.157 Y124.157 E.0726
G1 X144.157 Y126.473 E.0726
G1 X141.841 Y126.473 E.0726
G1 X141.841 Y128.788 E.0726
G1 X137.21 Y128.788 E.14521
G1 X137.21 Y131.104 E.0726
G1 X112.79 Y131.104 E.76568
G1 X112.79 Y128.788 E.0726
G1 X108.159 Y128.788 E.14521
G1 X108.159 Y126.473 E.0726
G1 X105.843 Y126.473 E.0726
G1 X105.843 Y124.157 E.0726
G1 X103.527 Y124.157 E.0726
G1 X103.527 Y121.841 E.0726
G1 X101.212 Y121.841 E.0726
G1 X101.212 Y117.21 E.14521
G1 X98.896 Y117.21 E.0726
G1 X98.896 Y92.79 E.76568
G1 X101.212 Y92.79 E.0726
G1 X101.212 Y88.159 E.14521
G1 X103.527 Y88.159 E.0726
G1 X103.527 Y85.843 E.0726
G1 X105.843 Y85.843 E.0726
G1 X105.843 Y83.527 E.0726
G1 X108.159 Y83.527 E.0726
G1 X108.159 Y81.212 E.0726
G1 X112.79 Y81.212 E.14521
G1 X112.79 Y78.896 E.0726
G1 X137.21 Y78.896 E.76568
G1 X137.21 Y81.155 E.07083
M204 S1000
G1 X124.699 Y90.833 F10800
M204 S800
G1 F1200
G1 X123.546 Y90.905 E.03624
G1 X122.402 Y91.07 E.03624
G1 X121.297 Y91.322 E.03551
G1 X120.195 Y91.67 E.03625
G1 X119.103 Y92.115 E.03697
G1 X118.093 Y92.628 E.03552
G1 X117.124 Y93.221 E.03563
G1 X116.174 Y93.914 E.03685
G1 X115.3 Y94.67 E.03624
G1 X114.49 Y95.495 E.03624
G1 X113.751 Y96.384 E.03624
G1 X113.086 Y97.329 E.03624
G1 X112.5 Y98.326 E.03624
G1 X111.989 Y99.388 E.03697
G1 X111.582 Y100.446 E.03552
G1 X111.255 Y101.554 E.03624
G1 X111.02 Y102.686 E.03625
G1 X110.876 Y103.857 E.03697
G1 X110.83 Y105.012 E.03624
G1 X110.878 Y106.167 E.03624
G1 X111.02 Y107.314 E.03624
G1 X111.25 Y108.423 E.03551
G1 X111.574 Y109.532 E.03625
G1 X111.998 Y110.633 E.03697
G1 X112.5 Y111.674 E.03624
G1 X113.073 Y112.651 E.03552
G1 X113.736 Y113.598 E.03624
G1 X114.475 Y114.487 E.03625
G1 X115.283 Y115.314 E.03624
G1 X116.156 Y116.071 E.03624
G1 X117.088 Y116.755 E.03624
G1 X118.072 Y117.361 E.03624
G1 X119.124 Y117.894 E.03697
G1 X120.195 Y118.33 E.03624
G1 X121.275 Y118.672 E.03551
G1 X122.402 Y118.93 E.03624
G1 X123.569 Y119.098 E.03697
G1 X124.723 Y119.167 E.03624
G1 X125.878 Y119.143 E.03624
G1 X127.005 Y119.027 E.03552
G1 X128.123 Y118.821 E.03563
G1 X129.258 Y118.515 E.03686
G1 X130.345 Y118.123 E.03624
G1 X131.418 Y117.633 E.03697
G1 X132.426 Y117.068 E.03625
G1 X133.385 Y116.423 E.03624
G1 X134.271 Y115.717 E.03551
G1 X135.113 Y114.925 E.03625
G1 X135.903 Y114.05 E.03697
G1 X136.605 Y113.131 E.03624
G1 X137.229 Y112.158 E.03624
G1 X137.762 Y111.159 E.03551
G1 X138.213 Y110.116 E.03563
G1 X138.593 Y109.003 E.03685
G1 X138.874 Y107.882 E.03624
G1 X139.065 Y106.719 E.03697
G1 X139.159 Y105.566 E.03624
G1 X139.158 Y104.41 E.03624
G1 X139.065 Y103.281 E.03552
G1 X138.879 Y102.141 E.03624
G1 X138.599 Y101.019 E.03624
G1 X138.23 Y99.924 E.03624
G1 X137.762 Y98.841 E.03697
G1 X137.217 Y97.822 E.03624
G1 X136.591 Y96.85 E.03624
G1 X135.903 Y95.95 E.03552
G1 X135.13 Y95.091 E.03624
G1 X134.271 Y94.283 E.03697
G1 X133.366 Y93.563 E.03624
M73 Q2 S53
G1 X132.406 Y92.92 E.03624
G1 X131.418 Y92.367 E.03552
M73 P2 R53
G1 X130.367 Y91.886 E.03624
G1 X129.258 Y91.485 E.03697
G1 X128.142 Y91.183 E.03624
G1 X127.005 Y90.973 E.03624
G1 X125.878 Y90.857 E.03551
G1 X124.756 Y90.833 E.0352
M204 S1000
;WIPE_START
G1 F8640
G1 X125.878 Y90.857 E-.25923
G1 X127.005 Y90.973 E-.26154
G1 X128.142 Y91.183 E-.26691
G1 X128.82 Y91.366 E-.16232
;WIPE_END
G1 E-.05 F2100
G1 Z.4 F720
G1 X150.558 Y117.041 F10800
G1 Z.2 F720
G1 E1 F2100
M204 S800
G1 F1200
G1 X150.558 Y93.129 E.74972
G1 X150.139 Y93.129 E.01314
G1 X150.139 Y116.871 E.7444
