; generated by PrusaSlicer 2.4.1+arm64 on 2022-04-19 at 08:19:32 UTC

; 

; external perimeters extrusion width = 0.45mm
; perimeters extrusion width = 0.45mm
; infill extrusion width = 0.45mm
; solid infill extrusion width = 0.45mm
; top infill extrusion width = 0.40mm
; first layer extrusion width = 0.42mm

M73 P0 R26
M73 Q0 S28
M201 X1000 Y1000 Z200 E5000 ; sets maximum accelerations, mm/sec^2
M203 X200 Y200 Z12 E120 ; sets maximum feedrates, mm / sec
M204 P1250 R1250 T1250 ; sets acceleration (P, T) and retract acceleration (R), mm/sec^2
M205 X8.00 Y8.00 Z0.40 E4.50 ; sets the jerk limits, mm/sec
M205 S0 T0 ; sets the minimum extruding and travel feed rate, mm/sec
M107
;TYPE:Custom
M862.3 P "MK3" ; printer model check
M862.1 P0.4 ; nozzle diameter check
M115 U3.10.1 ; tell printer latest fw version
G90 ; use absolute coordinates
M83 ; extruder relative mode
M104 S230 ; set extruder temp
M140 S85 ; set bed temp
M190 S85 ; wait for bed temp
M109 S230 ; wait for extruder temp
G28 W ; home all without mesh bed level
G80 ; mesh bed leveling
G1 Z0.2 F720
G1 Y-3 F1000 ; go outside print area
G92 E0
G1 X60 E9 F1000 ; intro line
G1 X100 E12.5 F1000 ; intro line
G92 E0
M221 S95

; Don't change E values below. Excessive value can damage the printer.
M907 E430 ; set extruder motor current
G21 ; set units to millimeters
G90 ; use absolute coordinates
M83 ; use relative distances for extrusion
M900 K0.08 ; Filament gcode LA 1.5
M900 K45 ; Filament gcode LA 1.0
M107
;LAYER_CHANGE
;Z:0.2
;HEIGHT:0.2
;BEFORE_LAYER_CHANGE
G92 E0.0
;0.2


G1 E-1 F2100
G1 Z.2 F720
;AFTER_LAYER_CHANGE
;0.2
G1 Z.4
G1 X99.002 Y47.098 F10800
G1 Z.2 F720
G1 E1 F2100
M204 S800
;TYPE:Skirt/Brim
;WIDTH:0.42
G1 F1200
G1 X101.336 Y42.19 E.17039
G1 X101.958 Y41.25 E.03536
G1 X102.872 Y40.46 E.03786
G1 X103.847 Y39.994 E.0339
G1 X105.11 Y39.791 E.04011
G1 X105.719 Y39.83 E.01912
G1 X106.402 Y39.985 E.02195
G1 X107.123 Y40.293 E.02459
G1 X107.625 Y40.608 E.01856
G1 X180.743 Y92.522 E2.81167
G1 X181.582 Y93.598 E.04278
M73 Q0 S27
G1 X181.744 Y94.46 E.02751
G1 X181.744 Y125.204 E.96394
G1 X181.644 Y125.886 E.02161
G1 X174.053 Y151.239 E.82981
G1 X172.375 Y155.668 E.14849
G1 X171.231 Y156.942 E.05369
G1 X146.002 Y169.773 E.88747
G1 X144.381 Y169.968 E.05119
M73 P1 R26
G1 X106.854 Y161.156 E1.20862
M73 Q1 S27
G1 X106.066 Y160.869 E.0263
G1 X105.22 Y160.335 E.03136
G1 X74.914 Y135.285 E1.23282
G1 X74.237 Y134.511 E.03223
G1 X73.812 Y133.606 E.03136
G1 X68.232 Y114.045 E.63778
G1 X68.091 Y112.801 E.03924
G1 X68.327 Y111.576 E.03912
G1 X98.976 Y47.152 E2.23691
M204 S1000
; printing object stredy_cisel id:0 copy 2
;WIPE_START
G1 F8640
G1 X100.743 Y43.437 E-.95
;WIPE_END
G1 E-.05 F2100
G1 Z.4 F720
G1 X177.776 Y95.319 F10800
G1 Z.2 F720
G1 E1 F2100
M204 S800
;TYPE:Perimeter
G1 F1200
G1 X178.455 Y95.206 E.02159
G1 X177.969 Y96.485 E.0429
G1 X177.785 Y95.378 E.03519
M204 S1000
G1 X177.342 Y95.008 F10800
M204 S800
;TYPE:External perimeter
G1 F1200
G1 X179.041 Y94.727 E.05399
G1 X177.825 Y97.925 E.10726
G1 X177.352 Y95.068 E.0908
M204 S1000
G1 X177.201 Y95.383 F10800
;WIPE_START
G1 F8640
G1 X179.041 Y94.727 E-.39781
G1 X178.191 Y96.962 E-.55219
;WIPE_END
G1 E-.05 F2100
G1 Z.4 F720
G1 X141.376 Y88.306 F10800
G1 Z.2 F720
G1 E1 F2100
M204 S800
;TYPE:Perimeter
G1 F1200
G1 X141.324 Y88.436 E.00441
G1 X141.254 Y88.546 E.0041
G1 X141.044 Y88.716 E.00847
G1 X140.918 Y88.771 E.00429
G1 X140.78 Y88.802 E.00444
G1 X140.652 Y88.808 E.00402
G1 X140.531 Y88.787 E.00383
G1 X140.401 Y88.736 E.00441
G1 X140.291 Y88.665 E.0041
G1 X140.121 Y88.455 E.00847
G1 X140.068 Y88.333 E.00417
G1 X140.039 Y88.203 E.00417
G1 X140.054 Y87.933 E.00848
G1 X140.102 Y87.811 E.0041
G1 X140.177 Y87.693 E.00441
G1 X140.263 Y87.606 E.00383
G1 X140.37 Y87.535 E.00402
G1 X140.5 Y87.48 E.00444
G1 X140.634 Y87.451 E.00429
G1 X140.904 Y87.465 E.00847
G1 X141.026 Y87.513 E.0041
G1 X141.144 Y87.589 E.00441
G1 X141.231 Y87.675 E.00383
G1 X141.302 Y87.782 E.00401
G1 X141.358 Y87.915 E.00456
G1 X141.391 Y88.057 E.00456
G1 X141.386 Y88.246 E.00594
M204 S1000
G1 X141.741 Y88.407 F10800
M204 S800
G1 F1200
G1 X141.662 Y88.609 E.0068
G1 X141.549 Y88.785 E.00656
G1 X141.41 Y88.923 E.00614
G1 X141.226 Y89.048 E.00696
G1 X141.036 Y89.131 E.00651
G1 X140.83 Y89.177 E.0066
G1 X140.628 Y89.186 E.00634
G1 X140.43 Y89.153 E.00631
G1 X140.228 Y89.073 E.0068
G1 X140.052 Y88.96 E.00656
G1 X139.914 Y88.821 E.00614
G1 X139.789 Y88.638 E.00696
G1 X139.707 Y88.449 E.00644
G1 X139.663 Y88.249 E.00643
G1 X139.657 Y88.026 E.007
G1 X139.688 Y87.834 E.0061
G1 X139.764 Y87.639 E.00656
G1 X139.881 Y87.456 E.0068
G1 X140.023 Y87.313 E.00631
G1 X140.191 Y87.202 E.00634
G1 X140.385 Y87.119 E.0066
G1 X140.588 Y87.075 E.00651
G1 X140.81 Y87.069 E.00696
G1 X141.003 Y87.099 E.00613
G1 X141.198 Y87.176 E.00656
G1 X141.381 Y87.293 E.0068
G1 X141.524 Y87.434 E.00631
G1 X141.635 Y87.603 E.00633
G1 X141.719 Y87.799 E.00668
G1 X141.766 Y88.007 E.00668
G1 X141.775 Y88.208 E.00634
G1 X141.751 Y88.348 E.00443
M204 S1000
G1 X142.106 Y88.509 F10800
M204 S800
;TYPE:External perimeter
G1 F1200
G1 X141.999 Y88.782 E.0092
G1 X141.844 Y89.023 E.00901
G1 X141.651 Y89.215 E.00852
G1 X141.409 Y89.38 E.00917
G1 X141.154 Y89.49 E.00874
G1 X140.881 Y89.553 E.00877
G1 X140.605 Y89.565 E.00866
G1 X140.328 Y89.518 E.0088
G1 X140.055 Y89.41 E.0092
G1 X139.814 Y89.255 E.00901
G1 X139.622 Y89.062 E.00852
G1 X139.457 Y88.821 E.00917
G1 X139.347 Y88.566 E.0087
G1 X139.287 Y88.295 E.0087
G1 X139.28 Y88.001 E.00921
G1 X139.322 Y87.734 E.00848
G1 X139.427 Y87.467 E.00901
G1 X139.585 Y87.22 E.0092
G1 X139.782 Y87.02 E.00879
G1 X140.012 Y86.868 E.00866
G1 X140.27 Y86.759 E.00877
G1 X140.542 Y86.699 E.00874
G1 X140.835 Y86.691 E.00918
G1 X141.103 Y86.733 E.00851
G1 X141.37 Y86.838 E.00901
G1 X141.617 Y86.997 E.0092
G1 X141.817 Y87.193 E.0088
G1 X141.969 Y87.424 E.00866
G1 X142.079 Y87.682 E.00881
G1 X142.141 Y87.956 E.0088
G1 X142.153 Y88.232 E.00866
G1 X142.116 Y88.449 E.00691
M204 S1000
G1 X141.822 Y88.582 F10800
G1 X141.281 Y88.135
M204 S800
;TYPE:Solid infill
;WIDTH:0.43482
G1 F1200
G1 X140.897 Y87.766 E.01736
G1 X140.843 Y87.745 E.00187
G1 X140.657 Y87.735 E.00606
G1 X140.504 Y87.786 E.00525
G1 X140.431 Y87.839 E.00296
G1 X140.989 Y88.397 E.02572
G1 X140.83 Y88.501 E.00619
G1 X140.67 Y88.524 E.00527
G1 X140.503 Y88.465 E.00577
G1 X140.157 Y88.12 E.01592
M204 S1000
;WIPE_START
G1 F8640
G1 X140.503 Y88.465 E-.11283
G1 X140.67 Y88.524 E-.04088
G1 X140.83 Y88.501 E-.03734
G1 X140.989 Y88.397 E-.04383
G1 X140.431 Y87.839 E-.18222
G1 X140.504 Y87.786 E-.02101
G1 X140.657 Y87.735 E-.03721
G1 X140.843 Y87.745 E-.04296
G1 X140.897 Y87.766 E-.01324
G1 X141.281 Y88.135 E-.12299
;WIPE_END
G1 E-.34547 F2100
G1 Z.4 F720
G1 X110.185 Y63.755 F10800
G1 Z.2 F720
G1 E1 F2100
M204 S800
;TYPE:Perimeter
;WIDTH:0.42
G1 F1200
G1 X110.126 Y63.806 E.00246
G1 X110.031 Y63.845 E.00321
G1 X109.901 Y63.807 E.00426
G1 X109.821 Y63.661 E.0052
G1 X109.851 Y63.542 E.00386
G1 X109.879 Y63.498 E.00164
G1 X109.934 Y63.464 E.00201
G1 X110.105 Y63.468 E.00537
G1 X110.169 Y63.512 E.00244
G1 X110.213 Y63.588 E.00277
G1 X110.226 Y63.647 E.00188
G1 X110.212 Y63.702 E.00176
M204 S1000
G1 X110.491 Y63.979 F10800
M204 S800
G1 F1200
G1 X110.322 Y64.13 E.00709
G1 X110.095 Y64.219 E.00766
G1 X109.894 Y64.209 E.00629
G1 X109.679 Y64.115 E.00736
G1 X109.537 Y63.955 E.00669
G1 X109.446 Y63.723 E.00783
G1 X109.459 Y63.518 E.00643
G1 X109.56 Y63.289 E.00786
G1 X109.709 Y63.154 E.00628
G1 X109.898 Y63.085 E.00632
G1 X110.155 Y63.089 E.00807
G1 X110.352 Y63.175 E.00675
G1 X110.507 Y63.332 E.0069
G1 X110.598 Y63.563 E.00779
G1 X110.59 Y63.763 E.00627
G1 X110.521 Y63.928 E.0056
M204 S1000
G1 X110.796 Y64.204 F10800
M204 S800
;TYPE:External perimeter
G1 F1200
G1 X110.674 Y64.339 E.00573
G1 X110.518 Y64.453 E.00606
G1 X110.334 Y64.544 E.00641
G1 X110.158 Y64.593 E.00574
G1 X109.985 Y64.604 E.00542
G1 X109.805 Y64.577 E.00572
G1 X109.617 Y64.513 E.00621
G1 X109.458 Y64.422 E.00575
G1 X109.326 Y64.305 E.00554
G1 X109.214 Y64.152 E.00596
G1 X109.122 Y63.965 E.00651
G1 X109.072 Y63.784 E.00589
G1 X109.062 Y63.609 E.00551
G1 X109.092 Y63.424 E.00585
G1 X109.161 Y63.229 E.00649
G1 X109.251 Y63.069 E.00576
G1 X109.366 Y62.94 E.00542
G1 X109.512 Y62.831 E.00573
G1 X109.678 Y62.75 E.00579
G1 X109.847 Y62.71 E.00544
G1 X110.085 Y62.701 E.00748
G1 X110.234 Y62.718 E.0047
G1 X110.406 Y62.773 E.00565
G1 X110.566 Y62.862 E.00574
G1 X110.711 Y62.981 E.00589
G1 X110.827 Y63.13 E.00592
G1 X110.919 Y63.315 E.00649
G1 X110.971 Y63.497 E.00594
G1 X110.984 Y63.673 E.00553
G1 X110.958 Y63.853 E.00569
G1 X110.892 Y64.04 E.00622
G1 X110.827 Y64.152 E.00406
M204 S1000
G1 X110.615 Y64.183 F10800
;WIPE_START
G1 F8640
G1 X110.674 Y64.339 E-.05583
G1 X110.518 Y64.453 E-.0446
G1 X110.334 Y64.544 E-.04722
G1 X110.158 Y64.593 E-.04226
G1 X109.985 Y64.604 E-.03993
G1 X109.805 Y64.577 E-.04216
G1 X109.617 Y64.513 E-.04575
G1 X109.458 Y64.422 E-.04232
G1 X109.326 Y64.305 E-.04083
G1 X109.214 Y64.152 E-.0439
G1 X109.122 Y63.965 E-.04793
G1 X109.072 Y63.784 E-.04335
G1 X109.062 Y63.609 E-.04061
G1 X109.092 Y63.424 E-.04308
G1 X109.161 Y63.229 E-.04778
G1 X109.251 Y63.069 E-.0424
G1 X109.366 Y62.94 E-.03994
G1 X109.512 Y62.831 E-.04217
G1 X109.678 Y62.75 E-.04267
G1 X109.847 Y62.71 E-.04003
G1 X110.085 Y62.701 E-.05508
G1 X110.172 Y62.711 E-.02017
;WIPE_END
G1 E-.05 F2100
G1 Z.4 F720
G1 X114.715 Y61.453 F10800
G1 Z.2 F720
G1 E1 F2100
M204 S800
;TYPE:Perimeter
G1 F1200
G1 X114.642 Y61.329 E.00451
G1 X114.627 Y61.249 E.00257
G1 X114.673 Y61.081 E.00547
G1 X114.727 Y60.998 E.0031
G1 X114.853 Y60.924 E.00458
G1 X114.971 Y60.903 E.00376
G1 X115.109 Y60.938 E.00447
G1 X115.224 Y61.015 E.00435
G1 X115.287 Y61.125 E.00397
G1 X115.292 Y61.232 E.00336
G1 X115.213 Y61.396 E.00569
G1 X115.171 Y61.442 E.00197
G1 X115.111 Y61.488 E.00238
G1 X114.979 Y61.541 E.00444
G1 X114.884 Y61.535 E.00301
G1 X114.763 Y61.488 E.00406
M204 S1000
G1 X114.437 Y61.711 F10800
M204 S800
G1 F1200
G1 X114.356 Y61.603 E.00425
G1 X114.287 Y61.463 E.00486
G1 X114.254 Y61.341 E.00399
G1 X114.248 Y61.228 E.00355
G1 X114.27 Y61.093 E.00429
G1 X114.326 Y60.928 E.00545
G1 X114.392 Y60.808 E.00429
G1 X114.469 Y60.72 E.00367
G1 X114.577 Y60.639 E.00423
G1 X114.72 Y60.57 E.00498
G1 X114.859 Y60.532 E.00452
G1 X114.988 Y60.524 E.00406
G1 X115.126 Y60.545 E.00438
G1 X115.264 Y60.592 E.00455
G1 X115.392 Y60.664 E.0046
G1 X115.497 Y60.751 E.0043
G1 X115.569 Y60.845 E.0037
G1 X115.639 Y60.986 E.00494
G1 X115.676 Y61.167 E.00578
G1 X115.637 Y61.409 E.00771
G1 X115.522 Y61.615 E.00738
G1 X115.428 Y61.721 E.00444
G1 X115.31 Y61.81 E.00466
G1 X115.17 Y61.88 E.0049
G1 X115.043 Y61.915 E.00412
G1 X114.927 Y61.923 E.00364
G1 X114.796 Y61.903 E.00416
G1 X114.642 Y61.852 E.00508
G1 X114.482 Y61.751 E.00596
M204 S1000
G1 X114.159 Y61.969 F10800
M204 S800
;TYPE:External perimeter
G1 F1200
G1 X114.032 Y61.8 E.00662
G1 X113.933 Y61.597 E.00708
G1 X113.879 Y61.401 E.00639
G1 X113.869 Y61.206 E.0061
G1 X113.903 Y61 E.00655
G1 X113.98 Y60.776 E.00744
G1 X114.081 Y60.592 E.00657
G1 X114.211 Y60.442 E.00622
G1 X114.38 Y60.316 E.00661
G1 X114.586 Y60.215 E.00721
G1 X114.798 Y60.158 E.00688
G1 X115.005 Y60.146 E.00651
G1 X115.216 Y60.177 E.00668
G1 X115.418 Y60.246 E.0067
G1 X115.606 Y60.351 E.00675
G1 X115.77 Y60.488 E.00669
G1 X115.891 Y60.644 E.00621
G1 X115.989 Y60.844 E.00698
G1 X116.056 Y61.151 E.00986
G1 X116.038 Y61.357 E.00648
G1 X115.99 Y61.549 E.00619
G1 X115.832 Y61.834 E.01024
G1 X115.686 Y61.999 E.00691
G1 X115.509 Y62.133 E.00695
G1 X115.305 Y62.233 E.00712
G1 X115.107 Y62.289 E.00646
G1 X114.912 Y62.301 E.00612
G1 X114.709 Y62.272 E.00645
G1 X114.491 Y62.199 E.00718
G1 X114.308 Y62.099 E.00654
G1 X114.204 Y62.009 E.00434
M204 S1000
G1 X114.22 Y61.768 F10800
;WIPE_START
G1 F8640
G1 X114.032 Y61.8 E-.06233
G1 X113.933 Y61.597 E-.05214
G1 X113.879 Y61.401 E-.04707
G1 X113.869 Y61.206 E-.04492
G1 X113.903 Y61 E-.04825
G1 X113.98 Y60.776 E-.05481
G1 X114.081 Y60.592 E-.04842
G1 X114.211 Y60.442 E-.0458
G1 X114.38 Y60.316 E-.04868
G1 X114.586 Y60.215 E-.05307
G1 X114.798 Y60.158 E-.05065
G1 X115.005 Y60.146 E-.0479
G1 X115.216 Y60.177 E-.04916
G1 X115.418 Y60.246 E-.04934
G1 X115.606 Y60.351 E-.04974
G1 X115.77 Y60.488 E-.04925
G1 X115.891 Y60.644 E-.04572
G1 X115.989 Y60.844 E-.05138
G1 X116.037 Y61.061 E-.05137
;WIPE_END
G1 E-.05 F2100
G1 Z.4 F720
G1 X114.919 Y61.245 F10800
G1 Z.2 F720
G1 E1 F2100
M204 S800
;TYPE:Gap fill
;WIDTH:0.271276
G1 F1200
G1 X114.94 Y61.235 E.00045
M204 S1000
M204 S800
;WIDTH:0.280971
G1 X114.948 Y61.225 E.00025
M204 S1000
M204 S800
;WIDTH:0.284716
G1 X114.952 Y61.22 E.00013
M204 S1000
M204 S800
;WIDTH:0.284717
G1 X114.96 Y61.215 E.00018
M204 S1000
;WIPE_START
G1 F8640
G1 X114.952 Y61.22 E-.00212
;WIPE_END
G1 E-.99788 F2100
G1 Z.4 F720
G1 X105.483 Y44.618 F10800
M73 P2 R26
G1 Z.2 F720
G1 E1 F2100
M204 S800
;TYPE:Perimeter
;WIDTH:0.42
G1 F1200
G1 X105.373 Y44.671 E.00383
G1 X105.236 Y44.704 E.00441
G1 X105.106 Y44.709 E.0041
G1 X104.987 Y44.687 E.00376
G1 X104.846 Y44.634 E.00474
G1 X104.729 Y44.562 E.00429
G1 X104.547 Y44.365 E.00842
G1 X104.494 Y44.255 E.00383
G1 X104.461 Y44.118 E.00441
G1 X104.456 Y43.988 E.0041
G1 X104.478 Y43.869 E.00377
G1 X104.531 Y43.728 E.00474
G1 X104.601 Y43.614 E.00417
G1 X104.691 Y43.517 E.00417
G1 X104.814 Y43.426 E.00478
G1 X104.921 Y43.374 E.00373
G1 X105.048 Y43.343 E.0041
G1 X105.188 Y43.338 E.00441
G1 X105.309 Y43.358 E.00383
G1 X105.548 Y43.48 E.00842
G1 X105.648 Y43.573 E.00428
G1 X105.739 Y43.696 E.00478
G1 X105.791 Y43.802 E.00373
G1 X105.822 Y43.93 E.0041
G1 X105.827 Y44.07 E.00441
G1 X105.807 Y44.191 E.00383
G1 X105.683 Y44.433 E.00854
G1 X105.531 Y44.582 E.00667
M204 S1000
G1 X105.681 Y44.942 F10800
M204 S800
G1 F1200
G1 X105.499 Y45.028 E.00631
G1 X105.288 Y45.079 E.0068
G1 X105.079 Y45.087 E.00656
G1 X104.886 Y45.052 E.00614
G1 X104.679 Y44.974 E.00696
G1 X104.502 Y44.865 E.00651
G1 X104.346 Y44.723 E.00661
G1 X104.223 Y44.563 E.00633
G1 X104.137 Y44.381 E.00631
G1 X104.086 Y44.17 E.0068
G1 X104.078 Y43.961 E.00655
G1 X104.113 Y43.768 E.00614
G1 X104.191 Y43.561 E.00696
G1 X104.299 Y43.386 E.00644
G1 X104.438 Y43.235 E.00643
G1 X104.617 Y43.102 E.007
G1 X104.792 Y43.017 E.0061
G1 X104.996 Y42.968 E.00656
G1 X105.212 Y42.959 E.0068
G1 X105.411 Y42.993 E.00631
G1 X105.599 Y43.067 E.00634
G1 X105.777 Y43.179 E.00661
G1 X105.93 Y43.32 E.00651
G1 X106.063 Y43.499 E.007
G1 X106.148 Y43.674 E.0061
G1 X106.197 Y43.878 E.00656
G1 X106.206 Y44.094 E.0068
G1 X106.172 Y44.293 E.00631
G1 X106.098 Y44.481 E.00634
G1 X105.985 Y44.661 E.00668
G1 X105.841 Y44.819 E.00668
G1 X105.729 Y44.905 E.00445
M204 S1000
G1 X105.879 Y45.266 F10800
M204 S800
;TYPE:External perimeter
G1 F1200
G1 X105.625 Y45.386 E.00879
G1 X105.34 Y45.454 E.0092
G1 X105.053 Y45.465 E.00901
G1 X104.785 Y45.417 E.00852
G1 X104.512 Y45.314 E.00917
G1 X104.274 Y45.168 E.00874
G1 X104.067 Y44.98 E.00877
G1 X103.899 Y44.761 E.00866
G1 X103.779 Y44.507 E.0088
G1 X103.711 Y44.222 E.0092
G1 X103.7 Y43.935 E.00901
G1 X103.748 Y43.667 E.00852
G1 X103.851 Y43.394 E.00917
M73 Q2 S27
G1 X103.997 Y43.157 E.0087
G1 X104.185 Y42.953 E.0087
G1 X104.421 Y42.778 E.00921
G1 X104.664 Y42.66 E.00848
G1 X104.943 Y42.593 E.00901
G1 X105.237 Y42.581 E.0092
G1 X105.513 Y42.628 E.0088
G1 X105.77 Y42.73 E.00866
G1 X106.007 Y42.878 E.00877
G1 X106.212 Y43.067 E.00874
G1 X106.387 Y43.303 E.00921
G1 X106.505 Y43.546 E.00848
G1 X106.572 Y43.825 E.00901
G1 X106.584 Y44.119 E.0092
G1 X106.537 Y44.395 E.00879
G1 X106.435 Y44.652 E.00866
G1 X106.286 Y44.89 E.0088
G1 X106.098 Y45.098 E.0088
G1 X105.926 Y45.229 E.00677
M204 S1000
G1 X105.633 Y45.13 F10800
;WIPE_START
G1 F8640
G1 X105.625 Y45.386 E-.07837
G1 X105.34 Y45.454 E-.06774
G1 X105.053 Y45.465 E-.06635
G1 X104.785 Y45.417 E-.06272
G1 X104.512 Y45.314 E-.06755
G1 X104.274 Y45.168 E-.06434
G1 X104.067 Y44.98 E-.06459
G1 X103.899 Y44.761 E-.06374
G1 X103.779 Y44.507 E-.06477
G1 X103.711 Y44.222 E-.06774
G1 X103.7 Y43.935 E-.06635
G1 X103.748 Y43.667 E-.06274
G1 X103.851 Y43.394 E-.06754
G1 X103.997 Y43.157 E-.06409
G1 X104.059 Y43.089 E-.02134
;WIPE_END
G1 E-.05 F2100
